;FLAVOR:Marlin
;TIME:6458
;Filament used: 5.00547m
;Layer height: 0.2
;MINX:56.51
;MINY:70.554
;MINZ:0.2
;MAXX:178.486
;MAXY:164.444
;MAXZ:10
;Generated with Cura_SteamEngine 5.3.1
M140 S50
M105
M190 S50
M104 S200
M105
M109 S200
M82 ;absolute extrusion mode
; Ender 3 Custom Start G-code
G92 E0 ; Reset Extruder
G28 ; Home all axes
G1 Z2.0 F3000 ; Move Z Axis up little to prevent scratching of Heat Bed
G1 X0.1 Y20 Z0.3 F5000.0 ; Move to start position
G1 X0.1 Y200.0 Z0.3 F1500.0 E15 ; Draw the first line
G1 X0.4 Y200.0 Z0.3 F5000.0 ; Move to side a little
G1 X0.4 Y20 Z0.3 F1500.0 E30 ; Draw the second line
G92 E0 ; Reset Extruder
G1 Z2.0 F3000 ; Move Z Axis up little to prevent scratching of Heat Bed
G1 X5 Y20 Z0.3 F5000.0 ; Move over to prevent blob squish
G92 E0
G92 E0
G1 F2700 E-5
;LAYER_COUNT:50
;LAYER:0
M107
G0 F6000 X67.435 Y84.74 Z0.2
;TYPE:SKIRT
G1 F2700 E0
G1 F1200 X67.895 Y84.418 E0.01868
G1 X68.745 Y83.883 E0.05208
G1 X69.163 Y83.648 E0.06803
G1 X70.018 Y83.219 E0.09985
G1 X72.833 Y81.967 E0.20232
G1 X75.127 Y80.863 E0.28699
G1 X77.398 Y79.692 E0.37197
G1 X79.608 Y78.471 E0.45595
G1 X81.803 Y77.174 E0.54075
G1 X83.943 Y75.828 E0.62484
G1 X86.715 Y73.959 E0.73603
G1 X87.404 Y73.521 E0.76319
G1 X88.323 Y73.01 E0.79816
G1 X88.727 Y72.812 E0.81312
G1 X89.579 Y72.441 E0.84403
G1 X90.124 Y72.233 E0.86343
G1 X91.404 Y71.839 E0.90798
G1 X91.985 Y71.701 E0.92784
G1 X92.907 Y71.526 E0.95905
G1 X93.301 Y71.47 E0.97229
G1 X94.231 Y71.382 E1.00336
G1 X94.796 Y71.354 E1.02217
G1 X96.012 Y71.366 E1.06262
G1 X96.556 Y71.404 E1.08076
G1 X97.614 Y71.534 E1.11621
G1 X98.125 Y71.624 E1.13347
G1 X99.163 Y71.863 E1.1689
G1 X99.673 Y72.009 E1.18654
G1 X100.692 Y72.36 E1.22239
G1 X101.169 Y72.553 E1.2395
G1 X102.095 Y72.983 E1.27346
G1 X102.931 Y73.431 E1.30501
G1 X121.846 Y84.346 E2.03135
G1 X124.11 Y85.61 E2.11759
G1 X126.356 Y86.783 E2.20187
G1 X128.638 Y87.893 E2.28627
G1 X130.947 Y88.937 E2.37056
G1 X133.294 Y89.918 E2.45516
G1 X135.698 Y90.845 E2.54086
G1 X138.064 Y91.681 E2.62432
G1 X140.467 Y92.454 E2.70828
G1 X142.923 Y93.169 E2.79336
G1 X145.397 Y93.813 E2.87838
G1 X147.828 Y94.375 E2.96137
G1 X150.355 Y94.881 E3.04709
G1 X152.858 Y95.312 E3.13156
G1 X155.375 Y95.67 E3.21612
G1 X157.861 Y95.953 E3.29934
G1 X160.429 Y96.173 E3.38507
G1 X163.676 Y96.359 E3.49324
G1 X164.858 Y96.496 E3.53281
G1 X165.393 Y96.59 E3.55088
G1 X166.435 Y96.83 E3.58645
G1 X166.924 Y96.97 E3.60336
G1 X167.941 Y97.32 E3.63914
G1 X168.443 Y97.523 E3.65715
G1 X169.417 Y97.978 E3.6929
G1 X169.871 Y98.22 E3.71001
G1 X170.754 Y98.749 E3.74425
G1 X171.179 Y99.034 E3.76127
G1 X172.136 Y99.762 E3.80126
G1 X172.591 Y100.152 E3.82119
G1 X173.283 Y100.803 E3.85279
G1 X173.582 Y101.112 E3.8671
G1 X174.281 Y101.914 E3.90248
G1 X174.585 Y102.302 E3.91887
G1 X175.134 Y103.074 E3.95038
G1 X175.439 Y103.548 E3.96913
G1 X176.023 Y104.585 E4.00871
G1 X176.227 Y105.002 E4.02415
G1 X176.594 Y105.846 E4.05476
G1 X176.804 Y106.396 E4.07434
G1 X177.089 Y107.253 E4.10438
G1 X177.202 Y107.692 E4.11946
G1 X177.336 Y108.26 E4.13887
G1 X177.504 Y109.144 E4.1688
G1 X177.558 Y109.518 E4.18137
G1 X177.649 Y110.45 E4.21251
G1 X177.676 Y110.973 E4.22993
G1 X177.684 Y111.852 E4.25917
G1 X177.645 Y112.938 E4.29531
G1 X177.589 Y113.985 E4.33018
G1 X177.525 Y116.524 E4.41466
G1 X177.534 Y119.056 E4.49887
G1 X177.614 Y121.612 E4.58393
G1 X177.656 Y122.402 E4.61024
G1 X177.686 Y123.188 E4.6364
G1 X177.67 Y124.259 E4.67203
G1 X177.635 Y124.781 E4.68943
G1 X177.494 Y125.92 E4.7276
G1 X177.398 Y126.449 E4.74548
G1 X177.185 Y127.376 E4.77712
G1 X177.072 Y127.78 E4.79107
G1 X176.784 Y128.654 E4.82168
G1 X176.577 Y129.199 E4.84107
G1 X176.052 Y130.358 E4.88339
G1 X175.792 Y130.848 E4.90184
G1 X175.269 Y131.725 E4.9358
G1 X175.031 Y132.082 E4.95007
G1 X174.477 Y132.835 E4.98116
G1 X174.102 Y133.299 E5.00101
G1 X173.266 Y134.214 E5.04223
G1 X172.913 Y134.556 E5.05858
G1 X172.171 Y135.208 E5.09143
G1 X171.758 Y135.537 E5.10899
G1 X170.913 Y136.143 E5.14358
G1 X170.441 Y136.446 E5.16223
G1 X169.407 Y137.027 E5.20168
G1 X168.934 Y137.258 E5.21919
G1 X167.95 Y137.677 E5.25476
G1 X167.456 Y137.857 E5.27225
G1 X166.452 Y138.165 E5.30718
G1 X165.943 Y138.293 E5.32463
G1 X164.879 Y138.501 E5.36069
G1 X164.425 Y138.565 E5.37594
G1 X163.554 Y138.65 E5.40505
G1 X160.832 Y138.798 E5.49572
G1 X158.287 Y139.003 E5.58064
G1 X155.797 Y139.276 E5.66395
G1 X153.249 Y139.627 E5.7495
G1 X150.72 Y140.049 E5.83478
G1 X148.26 Y140.531 E5.91815
G1 X145.782 Y141.091 E6.00265
G1 X143.359 Y141.709 E6.08582
G1 X140.872 Y142.421 E6.17186
G1 X138.427 Y143.197 E6.25718
G1 X136.087 Y144.011 E6.33958
G1 X133.684 Y144.923 E6.42507
G1 X131.34 Y145.892 E6.50943
G1 X129.034 Y146.922 E6.59343
G1 X126.732 Y148.029 E6.67839
G1 X124.461 Y149.202 E6.7634
G1 X121.853 Y150.65 E6.86262
G1 X103.334 Y161.341 E7.57383
G1 X102.613 Y161.744 E7.6013
G1 X102.181 Y161.972 E7.61755
G1 X101.745 Y162.189 E7.63375
G1 X100.698 Y162.638 E7.67164
G1 X100.205 Y162.818 E7.6891
G1 X99.208 Y163.126 E7.7238
G1 X98.698 Y163.255 E7.7413
G1 X97.624 Y163.466 E7.7777
G1 X97.164 Y163.531 E7.79316
G1 X96.235 Y163.619 E7.82419
G1 X95.724 Y163.644 E7.84121
G1 X94.666 Y163.641 E7.8764
G1 X94.139 Y163.612 E7.89395
G1 X93.093 Y163.5 E7.92894
G1 X92.585 Y163.419 E7.94605
G1 X91.499 Y163.184 E7.98301
G1 X90.918 Y163.025 E8.00304
G1 X89.771 Y162.637 E8.04332
G1 X89.291 Y162.442 E8.06055
G1 X88.371 Y162.014 E8.0943
G1 X87.916 Y161.774 E8.11141
G1 X87 Y161.227 E8.14689
G1 X85.748 Y160.388 E8.19702
G1 X84.98 Y159.859 E8.22803
G1 X82.822 Y158.461 E8.31355
G1 X80.661 Y157.146 E8.39769
G1 X78.47 Y155.897 E8.48157
G1 X76.202 Y154.687 E8.56707
G1 X73.958 Y153.571 E8.65043
G1 X70.762 Y152.109 E8.76732
G1 X69.936 Y151.739 E8.79742
G1 X68.973 Y151.245 E8.83342
G1 X68.47 Y150.952 E8.85278
G1 X67.488 Y150.301 E8.89197
G1 X67.121 Y150.026 E8.90722
G1 X66.394 Y149.427 E8.93855
G1 X66.016 Y149.085 E8.95551
G1 X65.277 Y148.344 E8.99032
G1 X64.873 Y147.895 E9.0104
G1 X64.113 Y146.942 E9.05095
G1 X63.809 Y146.51 E9.06852
G1 X63.248 Y145.617 E9.10359
G1 X63.035 Y145.236 E9.11811
G1 X62.615 Y144.397 E9.14932
G1 X62.374 Y143.854 E9.16908
G1 X61.951 Y142.725 E9.20918
G1 X61.665 Y141.776 E9.24214
G1 X57.953 Y127.936 E9.71873
G1 X57.772 Y127.224 E9.74317
G1 X57.649 Y126.691 E9.76136
G1 X57.514 Y125.968 E9.78582
G1 X57.452 Y125.553 E9.79978
G1 X57.371 Y124.835 E9.82381
G1 X57.344 Y124.487 E9.83542
G1 X57.314 Y123.85 E9.85663
G1 X57.31 Y123.581 E9.86558
G1 X57.319 Y122.984 E9.88544
G1 X57.416 Y120.772 E9.95908
G1 X57.472 Y118.228 E10.04371
G1 X57.458 Y115.671 E10.12876
G1 X57.322 Y112.169 E10.24532
G1 X57.31 Y111.563 E10.26548
G1 X57.318 Y111.001 E10.28418
G1 X57.332 Y110.66 E10.29553
G1 X57.422 Y109.661 E10.32889
G1 X57.484 Y109.219 E10.34374
G1 X57.605 Y108.518 E10.3674
G1 X57.738 Y107.917 E10.38787
G1 X57.964 Y107.024 E10.41851
G1 X61.563 Y93.593 E10.88098
G1 X61.796 Y92.775 E10.90927
G1 X61.951 Y92.279 E10.92656
G1 X62.074 Y91.918 E10.93924
G1 X62.419 Y91.041 E10.97059
G1 X62.654 Y90.516 E10.98972
G1 X63.221 Y89.43 E11.03046
G1 X63.495 Y88.974 E11.04816
G1 X64.08 Y88.104 E11.08303
G1 X64.387 Y87.695 E11.10004
G1 X65.071 Y86.877 E11.1355
G1 X65.396 Y86.527 E11.15139
G1 X66.053 Y85.881 E11.18203
G1 X66.467 Y85.509 E11.20055
G1 X67.435 Y84.74 E11.24166
G0 F6000 X67.206 Y84.412
G1 F1200 X67.682 Y84.079 E11.26099
G1 X68.549 Y83.534 E11.29505
G1 X68.984 Y83.29 E11.31164
G1 X69.855 Y82.854 E11.34403
G1 X72.67 Y81.602 E11.4465
G1 X74.944 Y80.507 E11.53045
G1 X77.215 Y79.336 E11.61543
G1 X79.415 Y78.121 E11.69902
G1 X81.59 Y76.835 E11.78306
G1 X83.721 Y75.495 E11.86679
G1 X86.5 Y73.621 E11.97827
G1 X87.189 Y73.183 E12.00542
G1 X88.147 Y72.651 E12.04187
G1 X88.567 Y72.445 E12.05743
G1 X89.436 Y72.067 E12.08895
G1 X89.981 Y71.859 E12.10835
G1 X91.312 Y71.45 E12.15466
G1 X91.91 Y71.308 E12.1751
G1 X92.851 Y71.13 E12.20696
G1 X93.263 Y71.072 E12.2208
G1 X94.211 Y70.982 E12.25247
G1 X94.776 Y70.954 E12.27128
G1 X96.04 Y70.967 E12.31333
G1 X96.605 Y71.007 E12.33217
G1 X97.683 Y71.14 E12.36829
G1 X98.215 Y71.234 E12.38626
G1 X99.273 Y71.478 E12.42237
G1 X99.783 Y71.624 E12.44002
G1 X100.842 Y71.989 E12.47727
G1 X101.337 Y72.19 E12.49504
G1 X102.284 Y72.63 E12.52977
G1 X103.131 Y73.085 E12.56175
G1 X122.041 Y83.997 E13.28791
G1 X124.295 Y85.255 E13.37376
G1 X126.531 Y86.423 E13.45766
G1 X128.813 Y87.533 E13.54207
G1 X131.101 Y88.568 E13.62559
G1 X133.438 Y89.545 E13.70984
G1 X135.838 Y90.471 E13.7954
G1 X138.186 Y91.3 E13.87822
G1 X140.586 Y92.072 E13.96207
G1 X143.031 Y92.784 E14.04677
G1 X145.487 Y93.423 E14.13117
G1 X147.918 Y93.985 E14.21416
G1 X150.43 Y94.488 E14.29937
G1 X152.914 Y94.916 E14.38321
G1 X155.431 Y95.274 E14.46776
G1 X157.895 Y95.554 E14.55024
G1 X160.463 Y95.775 E14.63597
G1 X163.722 Y95.962 E14.74455
G1 X164.927 Y96.102 E14.78489
G1 X165.483 Y96.2 E14.80367
G1 X166.545 Y96.445 E14.83992
G1 X167.034 Y96.585 E14.85684
G1 X168.091 Y96.949 E14.89402
G1 X168.593 Y97.152 E14.91203
G1 X169.605 Y97.625 E14.94919
G1 X170.077 Y97.877 E14.96698
G1 X170.977 Y98.417 E15.00189
G1 X171.421 Y98.716 E15.01969
G1 X172.396 Y99.458 E15.06045
G1 X172.865 Y99.861 E15.08101
G1 X173.57 Y100.525 E15.11322
G1 X173.884 Y100.849 E15.12823
G1 X174.596 Y101.667 E15.1643
G1 X174.911 Y102.07 E15.18131
G1 X175.46 Y102.842 E15.21282
G1 X175.788 Y103.352 E15.23299
G1 X176.372 Y104.389 E15.27257
G1 X176.594 Y104.842 E15.28935
G1 X176.968 Y105.703 E15.32057
G1 X177.184 Y106.27 E15.34075
G1 X177.469 Y107.127 E15.37079
G1 X177.591 Y107.6 E15.38704
G1 X177.729 Y108.185 E15.40703
G1 X177.9 Y109.087 E15.43757
G1 X177.956 Y109.479 E15.45074
G1 X178.048 Y110.429 E15.48248
G1 X178.076 Y110.969 E15.50047
G1 X178.084 Y111.866 E15.5303
G1 X178.044 Y112.959 E15.56668
G1 X177.989 Y113.995 E15.60118
G1 X177.925 Y116.534 E15.68566
G1 X177.934 Y119.043 E15.76911
G1 X178.013 Y121.599 E15.85416
G1 X178.056 Y122.387 E15.88041
G1 X178.086 Y123.194 E15.90727
G1 X178.069 Y124.286 E15.94359
G1 X178.032 Y124.83 E15.96173
G1 X177.888 Y125.991 E16.00064
G1 X177.788 Y126.539 E16.01917
G1 X177.57 Y127.484 E16.05142
G1 X177.452 Y127.905 E16.06597
G1 X177.158 Y128.796 E16.09717
G1 X176.951 Y129.341 E16.11656
G1 X176.405 Y130.545 E16.16053
G1 X176.136 Y131.053 E16.17965
G1 X175.602 Y131.947 E16.21429
G1 X175.353 Y132.319 E16.22918
G1 X174.788 Y133.086 E16.26086
G1 X174.397 Y133.569 E16.28153
G1 X173.561 Y134.484 E16.32275
G1 X173.177 Y134.856 E16.34053
G1 X172.42 Y135.521 E16.37405
G1 X171.991 Y135.862 E16.39228
G1 X171.129 Y136.48 E16.42755
G1 X170.637 Y136.795 E16.44698
G1 X169.603 Y137.376 E16.48643
G1 X169.091 Y137.626 E16.50538
G1 X168.087 Y138.053 E16.54167
G1 X167.593 Y138.233 E16.55916
G1 X166.55 Y138.553 E16.59544
G1 X166.02 Y138.686 E16.61362
G1 X164.956 Y138.894 E16.64968
G1 X164.464 Y138.963 E16.6662
G1 X163.576 Y139.049 E16.69587
G1 X160.864 Y139.197 E16.78621
G1 X158.331 Y139.401 E16.87073
G1 X155.841 Y139.674 E16.95404
G1 X153.315 Y140.021 E17.03885
G1 X150.791 Y140.443 E17.12396
G1 X148.337 Y140.924 E17.20714
G1 X145.881 Y141.479 E17.29088
G1 X143.463 Y142.096 E17.37388
G1 X140.982 Y142.806 E17.45971
G1 X138.558 Y143.575 E17.5443
G1 X136.218 Y144.389 E17.6267
G1 X133.837 Y145.293 E17.71141
G1 X131.493 Y146.262 E17.79577
G1 X129.197 Y147.287 E17.8794
G1 X126.916 Y148.384 E17.96358
G1 X124.655 Y149.552 E18.04822
G1 X122.047 Y151 E18.14744
G1 X103.529 Y161.69 E18.85861
G1 X102.8 Y162.098 E18.8864
G1 X102.359 Y162.33 E18.90297
G1 X101.903 Y162.557 E18.91991
G1 X100.835 Y163.014 E18.95855
G1 X100.323 Y163.2 E18.97667
G1 X99.306 Y163.514 E19.01207
G1 X98.796 Y163.643 E19.02956
G1 X97.68 Y163.862 E19.06739
G1 X97.202 Y163.929 E19.08344
G1 X96.255 Y164.019 E19.11508
G1 X95.723 Y164.044 E19.1328
G1 X94.644 Y164.04 E19.16869
G1 X94.096 Y164.01 E19.18694
G1 X93.03 Y163.895 E19.2226
G1 X92.5 Y163.81 E19.24045
G1 X91.393 Y163.57 E19.27813
G1 X90.79 Y163.404 E19.29893
G1 X89.62 Y163.008 E19.34001
G1 X89.122 Y162.805 E19.3579
G1 X88.184 Y162.368 E19.39232
G1 X87.729 Y162.128 E19.40943
G1 X86.777 Y161.559 E19.44631
G1 X85.521 Y160.717 E19.49661
G1 X84.763 Y160.195 E19.52722
G1 X82.614 Y158.803 E19.61238
G1 X80.463 Y157.494 E19.69613
G1 X78.272 Y156.245 E19.78001
G1 X76.014 Y155.04 E19.86514
G1 X73.792 Y153.935 E19.94767
G1 X70.596 Y152.473 E20.06457
G1 X69.753 Y152.095 E20.0953
G1 X68.772 Y151.591 E20.13198
G1 X68.269 Y151.298 E20.15134
G1 X67.248 Y150.621 E20.19209
G1 X66.867 Y150.335 E20.20793
G1 X66.126 Y149.724 E20.23987
G1 X65.748 Y149.382 E20.25683
G1 X64.98 Y148.612 E20.293
G1 X64.56 Y148.144 E20.31392
G1 X63.786 Y147.172 E20.35524
G1 X63.47 Y146.723 E20.3735
G1 X62.909 Y145.83 E20.40858
G1 X62.677 Y145.415 E20.42439
G1 X62.249 Y144.559 E20.45622
G1 X61.999 Y143.994 E20.47677
G1 X61.576 Y142.865 E20.51687
G1 X61.279 Y141.88 E20.55109
G1 X57.565 Y128.035 E21.02786
G1 X57.382 Y127.314 E21.0526
G1 X57.256 Y126.764 E21.07137
G1 X57.118 Y126.027 E21.0963
G1 X57.056 Y125.612 E21.11026
G1 X56.972 Y124.866 E21.13523
G1 X56.944 Y124.506 E21.14724
G1 X56.914 Y123.856 E21.16888
G1 X56.91 Y123.575 E21.17823
G1 X56.919 Y122.966 E21.19849
G1 X57.016 Y120.754 E21.27213
G1 X57.072 Y118.219 E21.35646
G1 X57.058 Y115.687 E21.44068
G1 X56.922 Y112.177 E21.55751
G1 X56.91 Y111.557 E21.57814
G1 X56.918 Y110.985 E21.59716
G1 X56.932 Y110.644 E21.60851
G1 X57.026 Y109.605 E21.64321
G1 X57.09 Y109.151 E21.65846
G1 X57.214 Y108.432 E21.68273
G1 X57.35 Y107.819 E21.70361
G1 X57.578 Y106.92 E21.73446
G1 X61.178 Y93.483 E22.19714
G1 X61.414 Y92.656 E22.22574
G1 X61.572 Y92.15 E22.24337
G1 X61.695 Y91.789 E22.25606
G1 X62.054 Y90.878 E22.28863
G1 X62.299 Y90.331 E22.30856
G1 X62.878 Y89.224 E22.35011
G1 X63.163 Y88.751 E22.36848
G1 X63.76 Y87.864 E22.40404
G1 X64.08 Y87.438 E22.42176
G1 X64.764 Y86.62 E22.45723
G1 X65.116 Y86.242 E22.47441
G1 X65.786 Y85.583 E22.50566
G1 X66.218 Y85.196 E22.52495
G1 X67.206 Y84.412 E22.5669
G0 F6000 X66.977 Y84.084
G1 F1200 X67.469 Y83.74 E22.58687
G1 X68.353 Y83.185 E22.62159
G1 X68.805 Y82.932 E22.63882
G1 X69.692 Y82.489 E22.67179
G1 X72.499 Y81.241 E22.77396
G1 X74.761 Y80.151 E22.85748
G1 X77.032 Y78.98 E22.94246
G1 X79.211 Y77.777 E23.02525
G1 X81.377 Y76.496 E23.10895
G1 X83.499 Y75.162 E23.19231
G1 X86.285 Y73.283 E23.30408
G1 X86.974 Y72.845 E23.33123
G1 X87.971 Y72.292 E23.36915
G1 X88.407 Y72.078 E23.38531
G1 X89.293 Y71.693 E23.41744
G1 X89.838 Y71.485 E23.43684
G1 X91.22 Y71.061 E23.48492
G1 X91.836 Y70.915 E23.50598
G1 X92.795 Y70.734 E23.53844
G1 X93.225 Y70.674 E23.55288
G1 X94.191 Y70.582 E23.58515
G1 X94.756 Y70.554 E23.60397
G1 X96.068 Y70.568 E23.64761
G1 X96.654 Y70.61 E23.66715
G1 X97.753 Y70.746 E23.70398
G1 X98.305 Y70.844 E23.72262
G1 X99.383 Y71.093 E23.75942
G1 X99.893 Y71.239 E23.77707
G1 X100.992 Y71.618 E23.81573
G1 X101.506 Y71.827 E23.83419
G1 X102.453 Y72.267 E23.86892
G1 X103.331 Y72.739 E23.90207
G1 X122.236 Y83.648 E24.62803
G1 X124.48 Y84.9 E24.7135
G1 X126.706 Y86.063 E24.79703
G1 X128.988 Y87.173 E24.88143
G1 X131.255 Y88.199 E24.9642
G1 X133.582 Y89.172 E25.04809
G1 X135.978 Y90.097 E25.13351
G1 X138.308 Y90.919 E25.21569
G1 X140.705 Y91.69 E25.29944
G1 X143.139 Y92.399 E25.38376
G1 X145.577 Y93.033 E25.46754
G1 X148.008 Y93.595 E25.55053
G1 X150.505 Y94.095 E25.63523
G1 X152.97 Y94.52 E25.71842
G1 X155.487 Y94.878 E25.80298
G1 X157.929 Y95.155 E25.88472
G1 X160.497 Y95.377 E25.97045
G1 X163.768 Y95.565 E26.07943
G1 X164.996 Y95.708 E26.12055
G1 X165.573 Y95.81 E26.14004
G1 X166.655 Y96.06 E26.17697
G1 X167.144 Y96.2 E26.19389
G1 X168.241 Y96.578 E26.23248
G1 X168.743 Y96.781 E26.25049
G1 X169.793 Y97.272 E26.28904
G1 X170.283 Y97.534 E26.30752
G1 X171.2 Y98.085 E26.34311
G1 X171.663 Y98.398 E26.3617
G1 X172.657 Y99.155 E26.40325
G1 X173.139 Y99.57 E26.42441
G1 X173.857 Y100.247 E26.45723
G1 X174.186 Y100.586 E26.47294
G1 X174.898 Y101.404 E26.50901
G1 X175.237 Y101.838 E26.52733
G1 X175.786 Y102.61 E26.55883
G1 X176.137 Y103.156 E26.58042
G1 X176.721 Y104.193 E26.62001
G1 X176.961 Y104.683 E26.63815
G1 X177.342 Y105.561 E26.66999
G1 X177.564 Y106.144 E26.69074
G1 X177.849 Y107.001 E26.72078
G1 X177.98 Y107.508 E26.73819
G1 X178.122 Y108.11 E26.75876
G1 X178.296 Y109.03 E26.78991
