;FLAVOR:Marlin
;TIME:343
;Filament used: 0.147723m
;Layer height: 0.2
;MINX:80
;MINY:104
;MINZ:0.2
;MAXX:155
;MAXY:131
;MAXZ:2.6
;Generated with Cura_SteamEngine 5.3.1
M140 S50
M105
M190 S50
M104 S200
M105
M109 S200
M82 ;absolute extrusion mode
; Ender 3 Custom Start G-code
G92 E0 ; Reset Extruder
G28 ; Home all axes
G1 Z2.0 F3000 ; Move Z Axis up little to prevent scratching of Heat Bed
G1 X0.1 Y20 Z0.3 F5000.0 ; Move to start position
G1 X0.1 Y200.0 Z0.3 F1500.0 E15 ; Draw the first line
G1 X0.4 Y200.0 Z0.3 F5000.0 ; Move to side a little
G1 X0.4 Y20 Z0.3 F1500.0 E30 ; Draw the second line
G92 E0 ; Reset Extruder
G1 Z2.0 F3000 ; Move Z Axis up little to prevent scratching of Heat Bed
G1 X5 Y20 Z0.3 F5000.0 ; Move over to prevent blob squish
G92 E0
G92 E0
G1 F2700 E-5
;LAYER_COUNT:14
;LAYER:0
M107
G0 F6000 X84.662 Y107.024 Z0.2
;TYPE:SKIRT
G1 F2700 E0
G1 F1200 X85.394 Y106.494 E0.03006
G1 X86.169 Y106.031 E0.06008
G1 X86.982 Y105.638 E0.09012
G1 X87.827 Y105.318 E0.12017
G1 X88.696 Y105.075 E0.15018
G1 X89.584 Y104.909 E0.18023
G1 X90.723 Y104.813 E0.21825
G1 X91.33 Y104.8 E0.23844
G1 X98.293 Y104.8 E0.47003
G1 X100.004 Y104.824 E0.52694
G1 X101.237 Y104.859 E0.56797
G1 X103.791 Y104.859 E0.65292
G1 X106.33 Y104.8 E0.73739
G1 X113.436 Y104.801 E0.97373
G1 X115.004 Y104.824 E1.02589
G1 X116.237 Y104.859 E1.06692
G1 X118.791 Y104.859 E1.15186
G1 X121.33 Y104.8 E1.23633
G1 X128.436 Y104.801 E1.47268
G1 X130.004 Y104.824 E1.52484
G1 X131.237 Y104.859 E1.56586
G1 X133.791 Y104.859 E1.65081
G1 X136.33 Y104.8 E1.73528
G1 X143.439 Y104.801 E1.97173
G1 X144.137 Y104.811 E1.99495
G1 X145.039 Y104.864 E2.025
G1 X145.932 Y104.996 E2.05502
G1 X146.81 Y105.207 E2.08506
G1 X147.666 Y105.495 E2.11509
G1 X148.493 Y105.857 E2.14512
G1 X149.285 Y106.292 E2.17517
G1 X150.036 Y106.794 E2.20522
G1 X150.739 Y107.361 E2.23526
G1 X151.389 Y107.988 E2.2653
G1 X151.981 Y108.67 E2.29533
G1 X152.511 Y109.401 E2.32536
G1 X152.973 Y110.177 E2.3554
G1 X153.366 Y110.99 E2.38544
G1 X153.684 Y111.835 E2.41547
G1 X153.927 Y112.705 E2.44551
G1 X154.092 Y113.593 E2.47555
G1 X154.187 Y114.723 E2.51327
G1 X154.2 Y115.33 E2.53346
G1 X154.199 Y119.39 E2.6685
G1 X154.19 Y120.117 E2.69268
G1 X154.139 Y121.019 E2.72273
G1 X154.008 Y121.913 E2.75278
G1 X153.799 Y122.791 E2.7828
G1 X153.513 Y123.648 E2.81285
G1 X153.152 Y124.476 E2.84289
G1 X152.72 Y125.268 E2.8729
G1 X152.219 Y126.02 E2.90295
G1 X151.653 Y126.724 E2.93299
G1 X151.028 Y127.375 E2.96301
G1 X150.347 Y127.969 E2.99307
G1 X149.616 Y128.5 E3.02312
G1 X148.842 Y128.964 E3.05313
G1 X148.029 Y129.358 E3.08318
G1 X147.185 Y129.678 E3.1132
G1 X146.315 Y129.923 E3.14326
G1 X145.428 Y130.089 E3.17328
G1 X144.277 Y130.187 E3.2117
G1 X143.67 Y130.2 E3.23189
G1 X136.563 Y130.199 E3.46827
G1 X134.997 Y130.176 E3.52036
G1 X133.763 Y130.141 E3.56142
G1 X131.209 Y130.141 E3.64637
G1 X128.67 Y130.2 E3.73084
G1 X121.563 Y130.199 E3.96722
G1 X119.997 Y130.176 E4.01931
G1 X118.763 Y130.141 E4.06037
G1 X116.209 Y130.141 E4.14532
G1 X113.67 Y130.2 E4.22979
G1 X106.563 Y130.199 E4.46617
G1 X104.997 Y130.176 E4.51826
G1 X103.763 Y130.141 E4.55932
G1 X101.209 Y130.141 E4.64426
G1 X98.67 Y130.2 E4.72873
G1 X91.575 Y130.199 E4.96471
G1 X90.877 Y130.19 E4.98793
G1 X89.976 Y130.139 E5.01795
G1 X89.082 Y130.007 E5.048
G1 X88.204 Y129.798 E5.07802
G1 X87.347 Y129.511 E5.10808
G1 X86.52 Y129.15 E5.13809
G1 X85.727 Y128.717 E5.16814
G1 X84.976 Y128.216 E5.19817
G1 X84.272 Y127.65 E5.22822
G1 X83.621 Y127.024 E5.25825
G1 X83.028 Y126.343 E5.28829
G1 X82.498 Y125.612 E5.31832
G1 X82.034 Y124.837 E5.34836
G1 X81.64 Y124.024 E5.37841
G1 X81.32 Y123.18 E5.40843
G1 X81.076 Y122.31 E5.43849
G1 X80.91 Y121.422 E5.46853
G1 X80.813 Y120.267 E5.50708
G1 X80.8 Y119.658 E5.52734
G1 X80.801 Y115.536 E5.66444
G1 X80.81 Y114.871 E5.68656
G1 X80.862 Y113.969 E5.71661
G1 X80.994 Y113.076 E5.74664
G1 X81.204 Y112.198 E5.77666
G1 X81.491 Y111.341 E5.80672
G1 X81.853 Y110.514 E5.83675
G1 X82.286 Y109.722 E5.86677
G1 X82.788 Y108.971 E5.89681
G1 X83.355 Y108.267 E5.92688
G1 X83.981 Y107.617 E5.95689
G1 X84.662 Y107.024 E5.98693
G0 F6000 X84.399 Y106.722
G1 F1200 X85.159 Y106.17 E6.01817
G1 X85.995 Y105.671 E6.05055
G1 X86.84 Y105.264 E6.08175
G1 X87.685 Y104.944 E6.1118
G1 X88.622 Y104.682 E6.14416
G1 X89.55 Y104.51 E6.17555
G1 X90.689 Y104.414 E6.21357
G1 X91.321 Y104.4 E6.23459
G1 X98.299 Y104.4 E6.46668
G1 X100.015 Y104.424 E6.52376
G1 X101.248 Y104.459 E6.56479
G1 X103.782 Y104.459 E6.64907
G1 X106.33 Y104.4 E6.73384
G1 X113.442 Y104.401 E6.97039
G1 X115.015 Y104.424 E7.02271
G1 X116.248 Y104.459 E7.06374
G1 X118.782 Y104.459 E7.14802
G1 X121.33 Y104.4 E7.23279
G1 X128.442 Y104.401 E7.46933
G1 X130.015 Y104.424 E7.52166
G1 X131.248 Y104.459 E7.56268
G1 X133.782 Y104.459 E7.64696
G1 X136.33 Y104.4 E7.73173
G1 X143.445 Y104.401 E7.96838
G1 X144.16 Y104.412 E7.99216
G1 X145.097 Y104.468 E8.02338
G1 X145.99 Y104.6 E8.05341
G1 X146.938 Y104.828 E8.08584
G1 X147.794 Y105.116 E8.11588
G1 X148.686 Y105.506 E8.14826
G1 X149.478 Y105.941 E8.17831
G1 X150.258 Y106.461 E8.20949
G1 X151.017 Y107.073 E8.24192
G1 X151.667 Y107.7 E8.27196
G1 X152.305 Y108.435 E8.30433
G1 X152.855 Y109.196 E8.33556
G1 X153.317 Y109.972 E8.36559
G1 X153.74 Y110.849 E8.39798
G1 X154.069 Y111.727 E8.42916
G1 X154.32 Y112.632 E8.4604
G1 X154.491 Y113.559 E8.49175
G1 X154.586 Y114.689 E8.52947
G1 X154.6 Y115.33 E8.55079
G1 X154.599 Y119.395 E8.686
G1 X154.589 Y120.14 E8.71078
G1 X154.535 Y121.077 E8.74199
G1 X154.404 Y121.971 E8.77205
G1 X154.188 Y122.884 E8.80325
G1 X153.88 Y123.808 E8.83565
G1 X153.519 Y124.636 E8.86569
G1 X153.053 Y125.49 E8.89805
G1 X152.531 Y126.271 E8.92929
G1 X151.965 Y126.975 E8.95934
G1 X151.317 Y127.652 E8.9905
G1 X150.582 Y128.293 E9.02294
G1 X149.851 Y128.824 E9.05299
G1 X149.048 Y129.307 E9.08416
G1 X148.171 Y129.732 E9.11657
G1 X147.327 Y130.052 E9.14659
G1 X146.389 Y130.316 E9.179
G1 X145.462 Y130.488 E9.21036
G1 X144.311 Y130.586 E9.24878
G1 X143.679 Y130.6 E9.26981
G1 X136.557 Y130.599 E9.50669
G1 X134.986 Y130.576 E9.55895
G1 X133.752 Y130.541 E9.60001
G1 X131.218 Y130.541 E9.68429
G1 X128.67 Y130.6 E9.76906
G1 X121.557 Y130.599 E10.00564
G1 X119.986 Y130.576 E10.05789
G1 X118.752 Y130.541 E10.09895
G1 X116.218 Y130.541 E10.18323
G1 X113.67 Y130.6 E10.268
G1 X106.557 Y130.599 E10.50458
G1 X104.986 Y130.576 E10.55684
G1 X103.752 Y130.541 E10.5979
G1 X101.218 Y130.541 E10.68218
G1 X98.67 Y130.6 E10.76695
G1 X91.57 Y130.599 E11.0031
G1 X90.854 Y130.589 E11.02691
G1 X89.918 Y130.535 E11.0581
G1 X89.024 Y130.403 E11.08815
G1 X88.111 Y130.187 E11.11936
G1 X87.187 Y129.878 E11.15176
G1 X86.36 Y129.517 E11.18178
G1 X85.505 Y129.05 E11.21418
G1 X84.725 Y128.528 E11.2454
G1 X84.021 Y127.962 E11.27544
G1 X83.319 Y127.287 E11.30783
G1 X82.726 Y126.606 E11.33786
G1 X82.174 Y125.847 E11.36908
G1 X81.674 Y125.011 E11.40148
G1 X81.266 Y124.166 E11.43269
G1 X80.946 Y123.322 E11.46271
G1 X80.683 Y122.384 E11.49511
G1 X80.511 Y121.455 E11.52653
G1 X80.413 Y120.276 E11.56588
G1 X80.4 Y119.658 E11.58644
G1 X80.401 Y115.531 E11.72371
G1 X80.411 Y114.848 E11.74643
G1 X80.466 Y113.911 E11.77764
G1 X80.598 Y113.018 E11.80767
G1 X80.815 Y112.105 E11.83888
G1 X81.112 Y111.214 E11.87012
G1 X81.502 Y110.322 E11.9025
G1 X81.953 Y109.5 E11.93368
G1 X82.476 Y108.72 E11.96492
G1 X83.043 Y108.016 E11.99498
G1 X83.718 Y107.315 E12.02735
G1 X84.399 Y106.722 E12.05738
G0 F6000 X84.136 Y106.42
G1 F1200 X84.924 Y105.846 E12.08981
G1 X85.821 Y105.311 E12.12455
G1 X86.698 Y104.89 E12.1569
G1 X87.543 Y104.57 E12.18696
G1 X88.549 Y104.289 E12.2217
G1 X89.516 Y104.111 E12.2544
G1 X90.655 Y104.015 E12.29242
G1 X91.312 Y104 E12.31427
G1 X98.305 Y104 E12.54686
G1 X100.026 Y104.024 E12.60411
G1 X101.259 Y104.059 E12.64514
G1 X103.773 Y104.059 E12.72875
G1 X106.33 Y104 E12.81382
G1 X113.448 Y104.001 E13.05057
G1 X115.026 Y104.024 E13.10306
G1 X116.259 Y104.059 E13.14408
G1 X118.773 Y104.059 E13.2277
G1 X121.33 Y104 E13.31277
G1 X128.448 Y104.001 E13.54951
G1 X130.026 Y104.024 E13.602
G1 X131.259 Y104.059 E13.64303
G1 X133.773 Y104.059 E13.72664
G1 X136.33 Y104 E13.81171
G1 X143.451 Y104.001 E14.04856
G1 X144.184 Y104.013 E14.07294
G1 X145.155 Y104.072 E14.1053
G1 X146.084 Y104.211 E14.13654
G1 X147.032 Y104.439 E14.16897
G1 X147.954 Y104.749 E14.20132
G1 X148.879 Y105.155 E14.23492
G1 X149.671 Y105.59 E14.26497
G1 X150.48 Y106.128 E14.29729
G1 X151.295 Y106.785 E14.33211
G1 X151.945 Y107.412 E14.36214
G1 X152.607 Y108.173 E14.39569
G1 X153.199 Y108.991 E14.42928
G1 X153.661 Y109.767 E14.45931
G1 X154.115 Y110.709 E14.49409
G1 X154.444 Y111.587 E14.52528
G1 X154.713 Y112.559 E14.55882
G1 X154.89 Y113.525 E14.59149
G1 X154.985 Y114.655 E14.6292
G1 X155 Y115.33 E14.65166
G1 X154.999 Y119.4 E14.78703
G1 X154.988 Y120.163 E14.81241
G1 X154.931 Y121.135 E14.84479
G1 X154.8 Y122.029 E14.87485
G1 X154.577 Y122.976 E14.9072
G1 X154.247 Y123.968 E14.94198
G1 X153.886 Y124.796 E14.97202
G1 X153.386 Y125.712 E15.00673
G1 X152.843 Y126.522 E15.03916
G1 X152.277 Y127.226 E15.06921
G1 X151.606 Y127.929 E15.10153
G1 X150.817 Y128.617 E15.13635
G1 X150.086 Y129.148 E15.1664
G1 X149.254 Y129.65 E15.19872
G1 X148.313 Y130.106 E15.2335
G1 X147.469 Y130.426 E15.26352
G1 X146.497 Y130.701 E15.29712
G1 X145.496 Y130.887 E15.33098
G1 X144.345 Y130.985 E15.3694
G1 X143.679 Y131 E15.39156
G1 X136.551 Y130.999 E15.62864
G1 X134.975 Y130.976 E15.68106
G1 X133.741 Y130.941 E15.72212
G1 X131.227 Y130.941 E15.80574
G1 X128.679 Y131 E15.8905
G1 X121.551 Y130.999 E16.12758
G1 X119.975 Y130.976 E16.18001
G1 X118.741 Y130.941 E16.22107
G1 X116.227 Y130.941 E16.30468
G1 X113.67 Y131 E16.38975
G1 X106.551 Y130.999 E16.62653
G1 X104.975 Y130.976 E16.67895
G1 X103.741 Y130.941 E16.72001
G1 X101.227 Y130.941 E16.80363
G1 X98.67 Y131 E16.8887
G1 X91.564 Y130.999 E17.12504
G1 X90.831 Y130.988 E17.14943
G1 X89.86 Y130.931 E17.18178
G1 X88.966 Y130.799 E17.21183
G1 X87.984 Y130.566 E17.2454
G1 X87.027 Y130.245 E17.27898
G1 X86.2 Y129.884 E17.30899
G1 X85.313 Y129.401 E17.34258
G1 X84.474 Y128.84 E17.37615
G1 X83.77 Y128.274 E17.40619
G1 X83.017 Y127.55 E17.44094
G1 X82.424 Y126.869 E17.47097
G1 X81.831 Y126.052 E17.50455
G1 X81.314 Y125.185 E17.53812
G1 X80.892 Y124.308 E17.57049
G1 X80.572 Y123.464 E17.60051
G1 X80.298 Y122.492 E17.6341
G1 X80.112 Y121.488 E17.66806
G1 X80.014 Y120.309 E17.70741
G1 X80 Y119.658 E17.72907
G1 X80.001 Y115.525 E17.86653
G1 X80.012 Y114.825 E17.88982
G1 X80.07 Y113.853 E17.92221
G1 X80.202 Y112.96 E17.95223
G1 X80.426 Y112.013 E17.9846
G1 X80.745 Y111.054 E18.01821
G1 X81.135 Y110.162 E18.05059
G1 X81.602 Y109.308 E18.08296
G1 X82.164 Y108.469 E18.11655
G1 X82.731 Y107.765 E18.14662
G1 X83.455 Y107.013 E18.18134
G1 X84.136 Y106.42 E18.21137
G1 F2700 E13.21137
;MESH:stopper.stl
G0 F6000 X91.414 Y114.335
G0 X91.414 Y115.414
G0 X92.572 Y118.678
G0 X95.974 Y119.147
G0 X95.893 Y118.887
;TYPE:WALL-INNER
G1 F2700 E18.21137
G1 F1010.5 X95.854 Y118.915 E18.21327
G1 F1073.8 X95.417 Y119.054 E18.23031
G1 F1218.3 X94.854 Y119.089 E18.24879
G1 F1230.8 X94.3 Y118.984 E18.26708
G1 F1086 X94.123 Y118.888 E18.27448
G1 F1012.7 X93 Y118.887 E18.31874
G1 F1098.4 X92.513 Y118.602 E18.33924
G1 F1200 X92.4 Y118.335 E18.34888
G1 X92.4 Y116.75 E18.4016
G1 X92.513 Y116.398 E18.4139
G1 F1088.4 X92.889 Y116.118 E18.43109
G1 F1004.2 X94.125 Y116.113 E18.48021
G1 F1093.4 X94.296 Y116.017 E18.48737
G1 F1266.5 X94.86 Y115.912 E18.50545
G1 F1322.3 X95.411 Y115.945 E18.52211
G1 F1134.8 X95.853 Y116.085 E18.53842
G1 F1010.5 X95.893 Y116.113 E18.54035
G1 X98.363 Y116.113 E18.63791
G1 X98.363 Y115.637 E18.65671
G1 X95.964 Y115.637 E18.75146
G1 F1111.1 X95.565 Y115.596 E18.76587
G1 F1283.4 X95.315 Y115.579 E18.77366
G1 F1355.9 X94.786 Y115.574 E18.78923
G1 F1286.9 X94.393 Y115.598 E18.80144
G1 F1100.9 X94.055 Y115.637 E18.81378
G1 F1004.2 X92.848 Y115.641 E18.86175
G1 F1088.4 X92.104 Y115.6 E18.88907
G1 F1200 X91.6 Y115.6 E18.90584
G1 X91.6 Y119.4 E19.03223
G1 X92.104 Y119.4 E19.04899
G1 F1098.4 X93 Y119.363 E19.08157
G1 F1012.7 X94.053 Y119.362 E19.12308
G1 F1106 X94.399 Y119.402 E19.13565
G1 F1300.8 X94.916 Y119.428 E19.15153
G1 F1355.9 X95.382 Y119.418 E19.16525
G1 F1145.6 X95.964 Y119.363 E19.18562
G1 F1010.5 X98.363 Y119.363 E19.28037
G1 X98.363 Y118.887 E19.29917
G1 X95.893 Y118.887 E19.39672
G1 F2700 E14.39672
G0 F6000 X95.974 Y119.147
G0 X98.53 Y119.53
G0 X98.8 Y119.8
;TYPE:WALL-OUTER
G1 F2700 E19.39672
G1 F1200 X98.8 Y118.45 E19.44162
G1 X95.746 Y118.45 E19.5432
G1 X95.65 Y118.528 E19.54732
G1 X95.286 Y118.682 E19.56046
G1 X94.899 Y118.716 E19.57338
G1 X94.511 Y118.619 E19.58668
G1 X94.253 Y118.451 E19.59692
G1 X93 Y118.45 E19.6386
G1 X92.837 Y118.368 E19.64467
G1 X92.802 Y118.285 E19.64766
G1 X92.8 Y116.75 E19.69872
G1 X92.837 Y116.632 E19.70283
G1 X92.965 Y116.552 E19.70785
G1 X94.255 Y116.55 E19.75076
G1 X94.508 Y116.385 E19.7608
G1 X94.899 Y116.284 E19.77424
G1 X95.3 Y116.319 E19.78762
G1 X95.648 Y116.471 E19.80025
G1 X95.745 Y116.55 E19.80441
G1 X98.8 Y116.55 E19.90602
G1 X98.8 Y115.2 E19.95093
G1 X91.2 Y115.2 E20.2037
G1 X91.2 Y119.8 E20.3567
G1 X98.8 Y119.8 E20.60948
G0 F6000 X98.53 Y119.53
G0 X92.572 Y118.678
G0 X92.1 Y118.035
G0 X92.318 Y118.035
;TYPE:FILL
G1 F1200 X91.679 Y118.206 E20.63148
G0 F6000 X92.319 Y117.775
G1 F1200 X91.679 Y117.135 E20.66158
G1 F2700 E15.66158
G0 F6000 X91.9 Y117.135
G0 X92.586 Y118.664
G0 X93.653 Y117.597
G0 X99.653 Y117.597
G0 X105.335 Y118.664
G0 X106.42 Y118.664
G0 X110.974 Y119.147
G0 X110.893 Y118.887
;TYPE:WALL-INNER
G1 F2700 E20.66158
G1 F1010.5 X110.854 Y118.915 E20.66348
G1 F1073.8 X110.417 Y119.054 E20.68052
G1 F1218.3 X109.854 Y119.089 E20.699
G1 F1230.8 X109.3 Y118.984 E20.71729
G1 F1086 X109.123 Y118.888 E20.72469
G1 F1012.7 X108 Y118.887 E20.76895
G1 F1098.4 X107.513 Y118.602 E20.78945
G1 F1200 X107.4 Y118.335 E20.79909
G1 X107.4 Y116.75 E20.85181
G1 X107.513 Y116.398 E20.86411
G1 F1088.4 X107.889 Y116.118 E20.8813
G1 F1004.2 X109.125 Y116.113 E20.93043
G1 F1093.4 X109.296 Y116.017 E20.93758
G1 F1266.5 X109.86 Y115.912 E20.95566
G1 F1322.3 X110.411 Y115.945 E20.97232
G1 F1134.8 X110.853 Y116.085 E20.98863
G1 F1010.5 X110.893 Y116.113 E20.99056
G1 X113.363 Y116.113 E21.08812
G1 X113.363 Y115.637 E21.10692
G1 X110.964 Y115.637 E21.20167
G1 F1111.1 X110.565 Y115.596 E21.21608
G1 F1283.4 X110.315 Y115.579 E21.22387
G1 F1355.9 X109.786 Y115.574 E21.23944
G1 F1286.9 X109.393 Y115.598 E21.25165
G1 F1100.9 X109.055 Y115.637 E21.26399
G1 F1004.2 X107.848 Y115.641 E21.31196
G1 F1088.4 X107.104 Y115.6 E21.33928
G1 F1200 X106.6 Y115.6 E21.35605
G1 X106.6 Y119.4 E21.48244
G1 X107.104 Y119.4 E21.4992
G1 F1098.4 X108 Y119.363 E21.53178
G1 F1012.7 X109.053 Y119.362 E21.57329
G1 F1106 X109.399 Y119.402 E21.58586
G1 F1300.8 X109.916 Y119.428 E21.60174
G1 F1355.9 X110.382 Y119.418 E21.61546
G1 F1145.6 X110.964 Y119.363 E21.63583
G1 F1010.5 X113.363 Y119.363 E21.73058
G1 X113.363 Y118.887 E21.74938
G1 X110.893 Y118.887 E21.84693
G1 F2700 E16.84693
G0 F6000 X110.974 Y119.147
G0 X113.53 Y119.53
G0 X113.8 Y119.8
;TYPE:WALL-OUTER
G1 F2700 E21.84693
G1 F1200 X113.8 Y118.45 E21.89184
G1 X110.746 Y118.45 E21.99341
G1 X110.65 Y118.528 E21.99753
G1 X110.286 Y118.682 E22.01067
G1 X109.899 Y118.716 E22.02359
G1 X109.511 Y118.619 E22.03689
G1 X109.253 Y118.451 E22.04713
G1 X108 Y118.45 E22.08881
G1 X107.837 Y118.368 E22.09488
G1 X107.802 Y118.285 E22.09787
G1 X107.8 Y116.75 E22.14893
G1 X107.837 Y116.632 E22.15304
G1 X107.965 Y116.552 E22.15806
G1 X109.255 Y116.55 E22.20097
G1 X109.508 Y116.385 E22.21101
G1 X109.899 Y116.284 E22.22445
G1 X110.3 Y116.319 E22.23783
G1 X110.648 Y116.471 E22.25046
G1 X110.745 Y116.55 E22.25463
G1 X113.8 Y116.55 E22.35623
G1 X113.8 Y115.2 E22.40114
G1 X106.2 Y115.2 E22.65391
G1 X106.2 Y119.8 E22.80691
G1 X113.8 Y119.8 E23.05969
G0 F6000 X113.53 Y119.53
G0 X107.815 Y119.15
G0 X107.815 Y118.868
;TYPE:FILL
G1 F1200 X107.708 Y119.268 E23.07346
G0 F6000 X107.708 Y119.1
G0 X107.172 Y119.078
G0 X107.172 Y115.922
G0 X107.681 Y115.85
G0 X107.681 Y116.167
G1 F1200 X107.205 Y115.69 E23.09587
G1 F2700 E18.09587
G0 F6000 X107.205 Y115.9
G0 X113.586 Y116.336
G0 X114.665 Y116.336
