;FLAVOR:Marlin
;TIME:23788
;Filament used: 20.2833m
;Layer height: 0.2
;MINX:5.509
;MINY:9.5
;MINZ:0.2
;MAXX:229.481
;MAXY:225.5
;MAXZ:3
;Generated with Cura_SteamEngine 5.3.1
M140 S50
M105
M190 S50
M104 S200
M105
M109 S200
M82 ;absolute extrusion mode
; Ender 3 Custom Start G-code
G92 E0 ; Reset Extruder
G28 ; Home all axes
G1 Z2.0 F3000 ; Move Z Axis up little to prevent scratching of Heat Bed
G1 X0.1 Y20 Z0.3 F5000.0 ; Move to start position
G1 X0.1 Y200.0 Z0.3 F1500.0 E15 ; Draw the first line
G1 X0.4 Y200.0 Z0.3 F5000.0 ; Move to side a little
G1 X0.4 Y20 Z0.3 F1500.0 E30 ; Draw the second line
G92 E0 ; Reset Extruder
G1 Z2.0 F3000 ; Move Z Axis up little to prevent scratching of Heat Bed
G1 X5 Y20 Z0.3 F5000.0 ; Move over to prevent blob squish
G92 E0
G92 E0
G1 F2700 E-5
;LAYER_COUNT:15
;LAYER:0
M107
G0 F6000 X12.279 Y9.5 Z0.2
;TYPE:SKIRT
G1 F2700 E0
G1 F1200 X11.968 Y9.826 E0.01499
G1 X11.405 Y10.532 E0.04502
G1 X10.908 Y11.286 E0.07506
G1 X9.724 Y13.263 E0.1517
G1 X8.289 Y15.525 E0.2408
G1 X7.986 Y15.988 E0.2592
G1 X7.364 Y17.077 E0.30091
G1 X7.002 Y17.904 E0.33094
G1 X6.715 Y18.76 E0.36097
G1 X6.504 Y19.638 E0.391
G1 X6.372 Y20.532 E0.42106
G1 X6.319 Y21.433 E0.45108
G1 X6.309 Y22.143 E0.47469
G1 X6.309 Y31.095 E0.77244
G1 X6.329 Y31.944 E0.80069
G1 X6.36 Y32.611 E0.82289
G1 X6.434 Y35.179 E0.90834
G1 X6.434 Y37.715 E0.99269
G1 X6.362 Y40.307 E1.07893
G1 X6.327 Y41.118 E1.10593
G1 X6.309 Y42.114 E1.13906
G1 X6.309 Y51.095 E1.43777
G1 X6.329 Y51.944 E1.46602
G1 X6.36 Y52.611 E1.48823
G1 X6.434 Y55.179 E1.57367
G1 X6.434 Y57.715 E1.65802
G1 X6.362 Y60.307 E1.74427
G1 X6.327 Y61.118 E1.77126
G1 X6.309 Y62.148 E1.80553
G1 X6.309 Y71.095 E2.10311
G1 X6.329 Y71.944 E2.13135
G1 X6.36 Y72.611 E2.15356
G1 X6.434 Y75.179 E2.23901
G1 X6.434 Y77.715 E2.32336
G1 X6.362 Y80.307 E2.4096
G1 X6.327 Y81.118 E2.4366
G1 X6.309 Y82.148 E2.47086
G1 X6.309 Y91.095 E2.76844
G1 X6.329 Y91.944 E2.79669
G1 X6.36 Y92.611 E2.81889
G1 X6.434 Y95.179 E2.90434
G1 X6.434 Y97.715 E2.98869
G1 X6.362 Y100.307 E3.07493
G1 X6.327 Y101.118 E3.10193
G1 X6.309 Y102.148 E3.1362
G1 X6.309 Y111.095 E3.43377
G1 X6.33 Y111.935 E3.46172
G1 X6.372 Y112.814 E3.49099
G1 X6.444 Y115.403 E3.57713
G1 X6.442 Y117.938 E3.66145
G1 X6.367 Y120.543 E3.74813
G1 X6.338 Y121.23 E3.771
G1 X6.32 Y122.219 E3.8039
G1 X6.319 Y123.139 E3.8345
G1 X6.339 Y123.983 E3.86258
G1 X6.369 Y124.62 E3.88379
G1 X6.444 Y127.222 E3.97036
G1 X6.444 Y129.758 E4.05471
G1 X6.371 Y132.357 E4.14119
G1 X6.338 Y133.144 E4.16739
G1 X6.32 Y134.117 E4.19976
G1 X6.319 Y143.095 E4.49837
G1 X6.34 Y143.981 E4.52784
G1 X6.372 Y144.664 E4.55058
G1 X6.445 Y147.234 E4.6361
G1 X6.445 Y149.767 E4.72034
G1 X6.371 Y152.385 E4.80745
G1 X6.338 Y153.165 E4.83342
G1 X6.32 Y154.134 E4.86565
G1 X6.319 Y163.095 E5.1637
G1 X6.34 Y163.981 E5.19318
G1 X6.372 Y164.664 E5.21592
G1 X6.445 Y167.234 E5.30143
G1 X6.445 Y169.767 E5.38568
G1 X6.371 Y172.385 E5.47279
G1 X6.338 Y173.165 E5.49875
G1 X6.32 Y174.134 E5.53099
G1 X6.319 Y183.095 E5.82903
G1 X6.34 Y183.981 E5.85851
G1 X6.372 Y184.664 E5.88125
G1 X6.445 Y187.234 E5.96676
G1 X6.445 Y189.767 E6.05101
G1 X6.371 Y192.385 E6.13812
G1 X6.338 Y193.165 E6.16409
G1 X6.32 Y194.134 E6.19632
G1 X6.319 Y203.095 E6.49437
G1 X6.349 Y204.196 E6.531
G1 X6.373 Y204.692 E6.54752
G1 X6.445 Y207.255 E6.6328
G1 X6.444 Y209.796 E6.71731
G1 X6.371 Y212.392 E6.80369
G1 X6.338 Y213.154 E6.82905
G1 X6.32 Y214.079 E6.85983
G1 X6.319 Y215.064 E6.89259
G1 X6.335 Y215.707 E6.91398
G1 X6.438 Y216.832 E6.95155
G1 X6.609 Y217.719 E6.9816
G1 X6.858 Y218.587 E7.01163
G1 X7.182 Y219.43 E7.04167
G1 X7.58 Y220.241 E7.07172
G1 X8.048 Y221.013 E7.10175
G1 X8.583 Y221.741 E7.13179
G1 X9.179 Y222.419 E7.16182
G1 X9.834 Y223.041 E7.19186
G1 X10.541 Y223.603 E7.2219
G1 X11.295 Y224.1 E7.25194
G1 X13.274 Y225.283 E7.32862
G1 X13.616 Y225.5 E7.34209
G1 F2700 E2.34209
G0 F6000 X11.728 Y9.5
G1 F2700 E7.34209
G1 F1200 X11.655 Y9.577 E7.34562
G1 X11.092 Y10.283 E7.37566
G1 X10.574 Y11.066 E7.40688
G1 X9.386 Y13.049 E7.48377
G1 X7.954 Y15.306 E7.57267
G1 X7.651 Y15.769 E7.59107
G1 X7.017 Y16.879 E7.63359
G1 X6.623 Y17.777 E7.66621
G1 X6.326 Y18.667 E7.69741
G1 X6.108 Y19.58 E7.72863
G1 X5.976 Y20.474 E7.75869
G1 X5.919 Y21.427 E7.79044
G1 X5.909 Y22.137 E7.81406
G1 X5.909 Y31.104 E8.1123
G1 X5.929 Y31.953 E8.14055
G1 X5.96 Y32.623 E8.16286
G1 X6.034 Y35.179 E8.24791
G1 X6.034 Y37.704 E8.33189
G1 X5.962 Y40.29 E8.41793
G1 X5.927 Y41.101 E8.44493
G1 X5.909 Y42.107 E8.4784
G1 X5.909 Y51.104 E8.77764
G1 X5.929 Y51.953 E8.80588
G1 X5.96 Y52.623 E8.82819
G1 X6.034 Y55.179 E8.91324
G1 X6.034 Y57.704 E8.99722
G1 X5.962 Y60.29 E9.08327
G1 X5.927 Y61.101 E9.11027
G1 X5.909 Y62.141 E9.14486
G1 X5.909 Y71.104 E9.44297
G1 X5.929 Y71.953 E9.47122
G1 X5.96 Y72.623 E9.49353
G1 X6.034 Y75.179 E9.57857
G1 X6.034 Y77.704 E9.66256
G1 X5.962 Y80.29 E9.7486
G1 X5.927 Y81.101 E9.7756
G1 X5.909 Y82.141 E9.81019
G1 X5.909 Y91.104 E10.10831
G1 X5.929 Y91.953 E10.13655
G1 X5.96 Y92.623 E10.15886
G1 X6.034 Y95.179 E10.24391
G1 X6.034 Y97.704 E10.32789
G1 X5.962 Y100.29 E10.41393
G1 X5.927 Y101.101 E10.44093
G1 X5.909 Y102.141 E10.47553
G1 X5.909 Y111.105 E10.77367
G1 X5.93 Y111.945 E10.80162
G1 X5.972 Y112.825 E10.83092
G1 X6.044 Y115.403 E10.9167
G1 X6.042 Y117.926 E11.00062
G1 X5.967 Y120.526 E11.08713
G1 X5.938 Y121.213 E11.11
G1 X5.92 Y122.212 E11.14323
G1 X5.919 Y123.139 E11.17406
G1 X5.939 Y123.992 E11.20244
G1 X5.969 Y124.632 E11.22375
G1 X6.044 Y127.222 E11.30993
G1 X6.044 Y129.747 E11.39391
G1 X5.971 Y132.34 E11.48019
G1 X5.938 Y133.127 E11.50639
G1 X5.92 Y134.11 E11.53909
G1 X5.919 Y143.095 E11.83793
G1 X5.94 Y143.99 E11.86771
G1 X5.972 Y144.675 E11.89052
G1 X6.045 Y147.234 E11.97566
G1 X6.045 Y149.756 E12.05954
G1 X5.971 Y152.368 E12.14645
G1 X5.938 Y153.148 E12.17242
G1 X5.92 Y154.127 E12.20499
G1 X5.919 Y163.095 E12.50327
G1 X5.94 Y163.99 E12.53304
G1 X5.972 Y164.675 E12.55585
G1 X6.045 Y167.234 E12.641
G1 X6.045 Y169.756 E12.72488
G1 X5.971 Y172.368 E12.81179
G1 X5.938 Y173.148 E12.83775
G1 X5.92 Y174.127 E12.87032
G1 X5.919 Y183.095 E13.1686
G1 X5.94 Y183.99 E13.19837
G1 X5.972 Y184.675 E13.22118
G1 X6.045 Y187.234 E13.30633
G1 X6.045 Y189.756 E13.39021
G1 X5.971 Y192.368 E13.47712
G1 X5.938 Y193.148 E13.50309
G1 X5.92 Y194.127 E13.53566
G1 X5.919 Y203.095 E13.83393
G1 X5.949 Y204.207 E13.87093
G1 X5.973 Y204.703 E13.88745
G1 X6.045 Y207.255 E13.97236
G1 X6.044 Y209.785 E14.05651
G1 X5.971 Y212.375 E14.14269
G1 X5.938 Y213.137 E14.16806
G1 X5.92 Y214.071 E14.19913
G1 X5.919 Y215.064 E14.23215
G1 X5.935 Y215.717 E14.25388
G1 X6.045 Y216.908 E14.29366
G1 X6.216 Y217.795 E14.32371
G1 X6.485 Y218.731 E14.3561
G1 X6.809 Y219.574 E14.38614
G1 X7.221 Y220.417 E14.41734
G1 X7.706 Y221.22 E14.44854
G1 X8.261 Y221.978 E14.47979
G1 X8.879 Y222.683 E14.51097
G1 X9.585 Y223.354 E14.54337
G1 X10.292 Y223.916 E14.57341
G1 X11.075 Y224.434 E14.60463
G1 X12.858 Y225.5 E14.67373
G1 F2700 E9.67373
G0 F6000 X11.205 Y9.5
G1 F2700 E14.67373
G1 F1200 X10.758 Y10.062 E14.69761
G1 X10.24 Y10.845 E14.72884
G1 X9.048 Y12.835 E14.80599
G1 X7.619 Y15.087 E14.8947
G1 X7.316 Y15.55 E14.9131
G1 X6.651 Y16.718 E14.95781
G1 X6.257 Y17.616 E14.99042
G1 X5.937 Y18.574 E15.02402
G1 X5.712 Y19.522 E15.05642
G1 X5.58 Y20.416 E15.08648
G1 X5.52 Y21.403 E15.11937
G1 X5.509 Y22.131 E15.14358
G1 X5.509 Y31.113 E15.44233
G1 X5.529 Y31.962 E15.47057
G1 X5.56 Y32.635 E15.49298
G1 X5.634 Y35.179 E15.57763
G1 X5.634 Y37.693 E15.66124
G1 X5.562 Y40.273 E15.74709
G1 X5.527 Y41.084 E15.77409
G1 X5.509 Y42.1 E15.80789
G1 X5.509 Y51.113 E16.10766
G1 X5.529 Y51.962 E16.13591
G1 X5.56 Y52.635 E16.15831
G1 X5.634 Y55.179 E16.24296
G1 X5.634 Y57.693 E16.32658
G1 X5.562 Y60.273 E16.41242
G1 X5.527 Y61.084 E16.43942
G1 X5.509 Y62.134 E16.47435
G1 X5.509 Y71.113 E16.77299
G1 X5.529 Y71.962 E16.80124
G1 X5.56 Y72.635 E16.82365
G1 X5.634 Y75.179 E16.9083
G1 X5.634 Y77.693 E16.99191
G1 X5.562 Y80.273 E17.07776
G1 X5.527 Y81.084 E17.10476
G1 X5.509 Y82.134 E17.13968
G1 X5.509 Y91.113 E17.43833
G1 X5.529 Y91.962 E17.46657
G1 X5.56 Y92.635 E17.48898
G1 X5.634 Y95.179 E17.57363
G1 X5.634 Y97.693 E17.65725
G1 X5.562 Y100.273 E17.74309
G1 X5.527 Y101.084 E17.77009
G1 X5.509 Y102.134 E17.80502
G1 X5.509 Y111.115 E18.10373
G1 X5.53 Y111.955 E18.13167
G1 X5.572 Y112.836 E18.16101
G1 X5.644 Y115.403 E18.24642
G1 X5.642 Y117.914 E18.32994
G1 X5.567 Y120.509 E18.41628
G1 X5.538 Y121.196 E18.43915
G1 X5.52 Y122.205 E18.47272
G1 X5.519 Y123.139 E18.50378
G1 X5.539 Y124.001 E18.53246
G1 X5.569 Y124.644 E18.55387
G1 X5.644 Y127.222 E18.63965
G1 X5.644 Y129.736 E18.72327
G1 X5.571 Y132.323 E18.80935
G1 X5.538 Y133.11 E18.83555
G1 X5.52 Y134.103 E18.86858
G1 X5.519 Y143.095 E19.16765
G1 X5.54 Y143.999 E19.19773
G1 X5.572 Y144.686 E19.2206
G1 X5.645 Y147.234 E19.30538
G1 X5.645 Y149.745 E19.3889
G1 X5.571 Y152.351 E19.47561
G1 X5.538 Y153.131 E19.50158
G1 X5.52 Y154.12 E19.53448
G1 X5.519 Y163.095 E19.83299
G1 X5.54 Y163.999 E19.86306
G1 X5.572 Y164.686 E19.88594
G1 X5.645 Y167.234 E19.97072
G1 X5.645 Y169.745 E20.05423
G1 X5.571 Y172.351 E20.14095
G1 X5.538 Y173.131 E20.16691
G1 X5.52 Y174.12 E20.19981
G1 X5.519 Y183.095 E20.49832
G1 X5.54 Y183.999 E20.5284
G1 X5.572 Y184.686 E20.55127
G1 X5.645 Y187.234 E20.63605
G1 X5.645 Y189.745 E20.71957
G1 X5.571 Y192.351 E20.80628
G1 X5.538 Y193.131 E20.83225
G1 X5.52 Y194.12 E20.86515
G1 X5.519 Y203.095 E21.16366
G1 X5.549 Y204.218 E21.20102
G1 X5.573 Y204.714 E21.21754
G1 X5.645 Y207.255 E21.30208
G1 X5.644 Y209.774 E21.38587
G1 X5.571 Y212.358 E21.47184
G1 X5.538 Y213.12 E21.49721
G1 X5.52 Y214.063 E21.52858
G1 X5.519 Y215.064 E21.56188
G1 X5.535 Y215.727 E21.58393
G1 X5.652 Y216.984 E21.62592
G1 X5.823 Y217.871 E21.65597
G1 X6.112 Y218.875 E21.69072
G1 X6.436 Y219.718 E21.72075
G1 X6.862 Y220.593 E21.75312
G1 X7.383 Y221.456 E21.78665
G1 X7.96 Y222.242 E21.81908
G1 X8.578 Y222.947 E21.85026
G1 X9.309 Y223.644 E21.88386
G1 X10.071 Y224.25 E21.91624
G1 X10.854 Y224.768 E21.94747
G1 X12.079 Y225.5 E21.99493
G1 F2700 E16.99493
G0 F6000 X221.398 Y225.5
G1 F2700 E21.99493
G1 F1200 X222.691 Y224.704 E22.04543
G1 X223.694 Y224.106 E22.08427
G1 X224.082 Y223.862 E22.09951
G1 X224.814 Y223.332 E22.12957
G1 X225.495 Y222.74 E22.15958
G1 X226.122 Y222.09 E22.18962
G1 X226.689 Y221.386 E22.21969
G1 X227.191 Y220.636 E22.24971
G1 X227.625 Y219.844 E22.27974
G1 X227.987 Y219.016 E22.3098
G1 X228.274 Y218.16 E22.33983
G1 X228.485 Y217.282 E22.36986
G1 X228.617 Y216.389 E22.39989
G1 X228.67 Y215.487 E22.42994
G1 X228.68 Y214.775 E22.45362
G1 X228.681 Y213.861 E22.48402
G1 X228.661 Y213.017 E22.5121
G1 X228.631 Y212.38 E22.53331
G1 X228.556 Y209.778 E22.61989
G1 X228.556 Y207.242 E22.70424
G1 X228.631 Y204.574 E22.79301
G1 X228.662 Y203.849 E22.81715
G1 X228.68 Y202.841 E22.85068
G1 X228.681 Y193.905 E23.14789
G1 X228.661 Y193.055 E23.17617
G1 X228.626 Y192.312 E23.20091
G1 X228.555 Y189.769 E23.28552
G1 X228.555 Y187.23 E23.36997
G1 X228.629 Y184.612 E23.45708
G1 X228.662 Y183.831 E23.48308
G1 X228.68 Y182.844 E23.51591
G1 X228.681 Y173.905 E23.81322
G1 X228.661 Y173.055 E23.8415
G1 X228.626 Y172.312 E23.86624
G1 X228.555 Y169.769 E23.95086
G1 X228.555 Y167.23 E24.0353
G1 X228.629 Y164.612 E24.12241
G1 X228.662 Y163.831 E24.14841
G1 X228.68 Y162.844 E24.18125
G1 X228.681 Y153.905 E24.47856
G1 X228.66 Y153.019 E24.50804
G1 X228.627 Y152.312 E24.53158
G1 X228.555 Y149.766 E24.61629
G1 X228.555 Y147.233 E24.70054
G1 X228.629 Y144.615 E24.78765
G1 X228.662 Y143.835 E24.81361
G1 X228.68 Y142.843 E24.84661
G1 X228.681 Y133.905 E25.14389
G1 X228.651 Y132.804 E25.18053
G1 X228.626 Y132.295 E25.19748
G1 X228.555 Y129.745 E25.28232
G1 X228.556 Y127.204 E25.36684
G1 X228.629 Y124.608 E25.45321
G1 X228.662 Y123.846 E25.47858
G1 X228.68 Y122.856 E25.51151
G1 X228.677 Y121.639 E25.55199
G1 X228.629 Y120.015 E25.60603
G1 X228.6 Y118.66 E25.65111
G1 X228.6 Y116.105 E25.73609
G1 X228.664 Y113.837 E25.81155
G1 X228.68 Y112.789 E25.84641
G1 X228.681 Y111.905 E25.87581
G1 X228.661 Y111.055 E25.90409
G1 X228.627 Y110.328 E25.9283
G1 X228.555 Y107.769 E26.01345
G1 X228.555 Y105.23 E26.09789
G1 X228.629 Y102.612 E26.185
G1 X228.662 Y101.831 E26.211
G1 X228.68 Y100.826 E26.24443
G1 X228.681 Y91.905 E26.54115
G1 X228.661 Y91.055 E26.56943
G1 X228.627 Y90.328 E26.59363
G1 X228.555 Y87.769 E26.67878
G1 X228.555 Y85.23 E26.76323
G1 X228.629 Y82.612 E26.85034
G1 X228.662 Y81.831 E26.87634
G1 X228.68 Y80.826 E26.90977
G1 X228.681 Y71.905 E27.20648
G1 X228.661 Y71.055 E27.23476
G1 X228.627 Y70.328 E27.25897
G1 X228.555 Y67.769 E27.34411
G1 X228.555 Y65.23 E27.42856
G1 X228.629 Y62.612 E27.51567
G1 X228.662 Y61.831 E27.54167
G1 X228.68 Y60.826 E27.5751
G1 X228.681 Y51.905 E27.87182
G1 X228.66 Y51.019 E27.90129
G1 X228.628 Y50.336 E27.92403
G1 X228.555 Y47.766 E28.00955
G1 X228.555 Y45.233 E28.09379
G1 X228.629 Y42.615 E28.1809
G1 X228.662 Y41.835 E28.20687
G1 X228.68 Y40.825 E28.24047
G1 X228.681 Y31.905 E28.53715
G1 X228.651 Y30.804 E28.57378
G1 X228.627 Y30.308 E28.5903
G1 X228.555 Y27.745 E28.67558
G1 X228.556 Y25.204 E28.76009
G1 X228.629 Y22.608 E28.84647
G1 X228.662 Y21.846 E28.87184
G1 X228.68 Y20.856 E28.90477
G1 X228.681 Y19.936 E28.93537
G1 X228.667 Y19.328 E28.9556
G1 X228.564 Y18.173 E28.99417
G1 X228.393 Y17.286 E29.02421
G1 X228.144 Y16.418 E29.05424
G1 X227.82 Y15.575 E29.08428
G1 X227.422 Y14.764 E29.11433
G1 X226.954 Y13.991 E29.14438
G1 X226.42 Y13.263 E29.17441
G1 X225.824 Y12.585 E29.20444
G1 X225.169 Y11.963 E29.23448
G1 X224.463 Y11.401 E29.26449
G1 X223.709 Y10.903 E29.29455
G1 X221.704 Y9.703 E29.37227
G1 X221.384 Y9.5 E29.38487
G0 F6000 X222.143 Y9.5
G1 F1200 X223.929 Y10.569 E29.4541
G1 X224.712 Y11.088 E29.48534
G1 X225.418 Y11.65 E29.51536
G1 X226.124 Y12.321 E29.54775
G1 X226.743 Y13.026 E29.57896
G1 X227.277 Y13.754 E29.60899
G1 X227.781 Y14.588 E29.6414
G1 X228.193 Y15.431 E29.6726
G1 X228.517 Y16.274 E29.70264
G1 X228.786 Y17.21 E29.73503
G1 X228.957 Y18.097 E29.76508
G1 X229.067 Y19.319 E29.80589
G1 X229.081 Y19.936 E29.82641
G1 X229.08 Y20.863 E29.85725
G1 X229.062 Y21.863 E29.89051
G1 X229.029 Y22.625 E29.91588
G1 X228.956 Y25.215 E30.00206
G1 X228.955 Y27.745 E30.08621
G1 X229.027 Y30.289 E30.17085
G1 X229.051 Y30.793 E30.18764
G1 X229.081 Y31.905 E30.22463
G1 X229.08 Y40.832 E30.52155
G1 X229.062 Y41.852 E30.55548
G1 X229.029 Y42.632 E30.58144
G1 X228.955 Y45.244 E30.66835
G1 X228.955 Y47.766 E30.75224
G1 X229.028 Y50.317 E30.83712
G1 X229.06 Y51.01 E30.86019
G1 X229.081 Y51.905 E30.88997
G1 X229.08 Y60.833 E31.18691
G1 X229.062 Y61.848 E31.22068
G1 X229.029 Y62.629 E31.24668
G1 X228.955 Y65.241 E31.33359
G1 X228.955 Y67.769 E31.41767
G1 X229.027 Y70.309 E31.50218
G1 X229.061 Y71.046 E31.52672
G1 X229.081 Y71.905 E31.5553
G1 X229.08 Y80.833 E31.85225
G1 X229.062 Y81.848 E31.88601
G1 X229.029 Y82.629 E31.91201
G1 X228.955 Y85.241 E31.99892
G1 X228.955 Y87.769 E32.083
G1 X229.027 Y90.309 E32.16752
G1 X229.061 Y91.046 E32.19206
G1 X229.081 Y91.905 E32.22064
G1 X229.08 Y100.833 E32.51758
G1 X229.062 Y101.848 E32.55135
G1 X229.029 Y102.629 E32.57735
G1 X228.955 Y105.241 E32.66426
G1 X228.955 Y107.769 E32.74834
G1 X229.027 Y110.309 E32.83285
G1 X229.061 Y111.046 E32.85739
G1 X229.081 Y111.905 E32.88597
G1 X229.08 Y112.795 E32.91557
G1 X229.064 Y113.848 E32.9506
G1 X229 Y116.116 E33.02606
G1 X229 Y118.66 E33.11068
G1 X229.029 Y120.003 E33.15535
G1 X229.077 Y121.638 E33.20976
G1 X229.08 Y122.863 E33.2505
G1 X229.062 Y123.863 E33.28377
G1 X229.029 Y124.625 E33.30914
G1 X228.956 Y127.215 E33.39531
G1 X228.955 Y129.745 E33.47946
G1 X229.026 Y132.275 E33.56364
G1 X229.051 Y132.793 E33.58089
G1 X229.081 Y133.905 E33.61789
G1 X229.08 Y142.85 E33.9154
G1 X229.062 Y143.852 E33.94873
G1 X229.029 Y144.632 E33.9747
G1 X228.955 Y147.244 E34.06161
G1 X228.955 Y149.766 E34.14549
G1 X229.027 Y152.293 E34.22958
G1 X229.06 Y153.01 E34.25345
G1 X229.081 Y153.905 E34.28322
G1 X229.08 Y162.851 E34.58077
G1 X229.062 Y163.848 E34.61394
G1 X229.029 Y164.629 E34.63993
G1 X228.955 Y167.241 E34.72684
G1 X228.955 Y169.769 E34.81093
G1 X229.026 Y172.293 E34.89491
