;FLAVOR:Marlin
;TIME:5095
;Filament used: 2.99805m
;Layer height: 0.2
;MINX:92.351
;MINY:95.017
;MINZ:0.24
;MAXX:142.658
;MAXY:139.786
;MAXZ:36.09
;Generated with Cura_SteamEngine 5.3.1
M140 S50
M105
M190 S50
M104 S200
M105
M109 S200
M82 ;absolute extrusion mode
; Ender 3 Custom Start G-code
G92 E0 ; Reset Extruder
G28 ; Home all axes
G1 Z2.0 F3000 ; Move Z Axis up little to prevent scratching of Heat Bed
G1 X0.1 Y20 Z0.3 F5000.0 ; Move to start position
G1 X0.1 Y200.0 Z0.3 F1500.0 E15 ; Draw the first line
G1 X0.4 Y200.0 Z0.3 F5000.0 ; Move to side a little
G1 X0.4 Y20 Z0.3 F1500.0 E30 ; Draw the second line
G92 E0 ; Reset Extruder
G1 Z2.0 F3000 ; Move Z Axis up little to prevent scratching of Heat Bed
G1 X5 Y20 Z0.3 F5000.0 ; Move over to prevent blob squish
G92 E0
G92 E0
G1 F2700 E-5
;LAYER_COUNT:175
;LAYER:-6
M107
G0 F9000 X94.581 Y97.3 Z0.24
;TYPE:SUPPORT-INTERFACE
G1 F2700 E0
G1 F1125 X94.904 Y97.016 E0.03433
G1 X95.199 Y96.787 E0.06414
G1 X95.696 Y96.498 E0.11004
G1 X96.113 Y96.327 E0.14601
G1 X96.451 Y96.217 E0.17439
G1 X96.982 Y96.114 E0.21756
G1 X97.535 Y96.083 E0.26177
G1 X137.508 Y96.083 E3.45259
G1 X138.012 Y96.113 E3.49289
G1 X138.538 Y96.215 E3.53566
G1 X138.892 Y96.328 E3.56533
G1 X139.223 Y96.468 E3.59402
G1 X139.654 Y96.693 E3.63283
G1 X140.03 Y96.956 E3.66945
G1 X140.339 Y97.229 E3.70237
G1 X140.518 Y97.412 E3.7228
G1 X140.793 Y97.745 E3.75727
G1 X141.061 Y98.146 E3.79577
G1 X141.259 Y98.552 E3.83183
G1 X141.383 Y98.872 E3.85923
G1 X141.474 Y99.188 E3.88548
G1 X141.564 Y99.631 E3.92156
G1 X141.592 Y99.966 E3.94839
G1 X141.594 Y100.318 E3.97649
G1 X141.554 Y100.772 E4.01287
G1 X141.466 Y101.23 E4.0501
G1 X141.283 Y101.769 E4.09554
G1 X141.033 Y102.264 E4.13981
G1 X121.052 Y136.868 E7.32946
G1 X120.838 Y137.197 E7.36079
G1 X120.62 Y137.478 E7.38918
G1 X120.314 Y137.799 E7.42458
G1 X120.04 Y138.036 E7.4535
G1 X119.665 Y138.299 E7.49006
G1 X119.377 Y138.464 E7.51656
G1 X118.972 Y138.645 E7.55197
G1 X118.625 Y138.762 E7.5812
G1 X118.284 Y138.847 E7.60925
G1 X117.842 Y138.906 E7.64485
G1 X117.481 Y138.924 E7.6737
G1 X116.95 Y138.888 E7.71618
G1 X116.449 Y138.787 E7.75698
G1 X116.028 Y138.645 E7.79245
G1 X115.578 Y138.446 E7.83172
G1 X115.032 Y138.102 E7.88324
G1 X114.692 Y137.804 E7.91933
G1 X114.429 Y137.541 E7.94901
G1 X114.16 Y137.195 E7.984
G1 X113.988 Y136.94 E8.00855
G1 X93.993 Y102.303 E11.20105
G1 X93.792 Y101.942 E11.23403
G1 X93.801 Y101.926 E11.2355
G1 X93.641 Y101.561 E11.26731
G1 X93.534 Y101.223 E11.29561
G1 X93.428 Y100.678 E11.33993
G1 X93.407 Y100.32 E11.36855
G1 X93.417 Y99.737 E11.4151
G1 X93.426 Y99.731 E11.41596
G1 X93.544 Y99.09 E11.46799
G1 X93.739 Y98.556 E11.51337
G1 X93.939 Y98.146 E11.54978
G1 X94.249 Y97.68 E11.59446
G1 X94.581 Y97.3 E11.63474
G0 F9000 X95.107 Y97.37
G1 F1125 X125.72 Y127.983 E15.0906
G1 F2700 E10.0906
G0 F9000 X124.892 Y129.418
G1 F2700 E15.0906
G1 F1125 X94.133 Y98.659 E18.56294
G1 F2700 E13.56294
G0 F9000 X93.824 Y100.612
G1 F2700 E18.56294
G1 F1125 X124.064 Y130.852 E21.97669
G1 F2700 E16.97669
G0 F9000 X123.235 Y132.286
G1 F2700 E21.97669
G1 F1125 X96.098 Y105.149 E25.04015
G1 F2700 E20.04015
G0 F9000 X94.828 Y105.884
G0 X97.918 Y111.236
G0 X99.188 Y110.502
G1 F2700 E25.04015
G1 F1125 X122.407 Y133.721 E27.66131
G1 F2700 E22.66131
G0 F9000 X121.579 Y135.155
G1 F2700 E27.66131
G1 F1125 X102.278 Y115.854 E29.84018
G1 F2700 E24.84018
G0 F9000 X101.008 Y116.588
G0 X104.099 Y121.941
G0 X105.368 Y121.207
G1 F2700 E29.84018
G1 F1125 X120.751 Y136.59 E31.57674
G1 F2700 E26.57674
G0 F9000 X119.689 Y137.791
G1 F2700 E31.57674
G1 F1125 X108.458 Y126.56 E32.8446
G1 F2700 E27.8446
G0 F9000 X107.19 Y127.294
G0 X110.28 Y132.645
G0 X111.548 Y131.912
G1 F2700 E32.8446
G1 F1125 X118.101 Y138.466 E33.58441
G1 F2700 E28.58441
G0 F9000 X118.922 Y139.786
G0 X120.001 Y139.338
G0 X120.839 Y138.761
G0 X121.707 Y137.814
G0 X127.818 Y127.281
G0 X126.548 Y126.548
G1 F2700 E33.58441
G1 F1125 X96.595 Y96.595 E36.96576
G1 F2700 E31.96576
G0 F9000 X98.746 Y96.483
G1 F2700 E36.96576
G1 F1125 X127.376 Y125.114 E40.19782
G1 F2700 E35.19782
G0 F9000 X128.205 Y123.68
G1 F2700 E40.19782
G1 F1125 X101.008 Y96.483 E43.26806
G1 F2700 E38.26806
G0 F9000 X103.271 Y96.483
G1 F2700 E43.26806
G1 F1125 X129.033 Y122.245 E46.17629
G1 F2700 E41.17629
G0 F9000 X129.861 Y120.81
G1 F2700 E46.17629
G1 F1125 X105.534 Y96.483 E48.92253
G1 F2700 E43.92253
G0 F9000 X107.797 Y96.483
G1 F2700 E48.92253
G1 F1125 X130.69 Y119.376 E51.50689
G1 F2700 E46.50689
G0 F9000 X131.518 Y117.941
G1 F2700 E51.50689
G1 F1125 X110.059 Y96.483 E53.92932
G1 F2700 E48.92932
G0 F9000 X112.322 Y96.483
G1 F2700 E53.92932
G1 F1125 X132.346 Y116.507 E56.1898
G1 F2700 E51.1898
G0 F9000 X133.174 Y115.072
G1 F2700 E56.1898
G1 F1125 X114.585 Y96.483 E58.28828
G1 F2700 E53.28828
G0 F9000 X116.847 Y96.483
G1 F2700 E58.28828
G1 F1125 X134.003 Y113.638 E60.22495
G1 F2700 E55.22495
G0 F9000 X134.831 Y112.203
G1 F2700 E60.22495
G1 F1125 X119.11 Y96.483 E61.99961
G1 F2700 E56.99961
G0 F9000 X121.373 Y96.483
G1 F2700 E61.99961
G1 F1125 X135.659 Y110.768 E63.61228
G1 F2700 E58.61228
G0 F9000 X136.487 Y109.334
G1 F2700 E63.61228
G1 F1125 X123.636 Y96.483 E65.06301
G1 F2700 E60.06301
G0 F9000 X125.898 Y96.483
G1 F2700 E65.06301
G1 F1125 X137.315 Y107.9 E66.35186
G1 F2700 E61.35186
G0 F9000 X138.143 Y106.465
G1 F2700 E66.35186
G1 F1125 X128.161 Y96.483 E67.47872
G1 F2700 E62.47872
G0 F9000 X130.424 Y96.483
G1 F2700 E67.47872
G1 F1125 X138.971 Y105.03 E68.44358
G1 F2700 E63.44358
G0 F9000 X139.8 Y103.596
G1 F2700 E68.44358
G1 F1125 X132.687 Y96.483 E69.24655
G1 F2700 E64.24655
G0 F9000 X134.949 Y96.483
G1 F2700 E69.24655
G1 F1125 X140.628 Y102.162 E69.88765
G1 F2700 E64.88765
G0 F9000 X141.18 Y100.451
G1 F2700 E69.88765
G1 F1125 X137.212 Y96.483 E70.33559
G1 F2700 E65.33559
G0 F300 X137.212 Y96.483 Z0.54
G0 F9000 X137.212 Y95.017
G0 X96.999 Y95.047
G0 X95.762 Y95.321
G0 X94.69 Y95.852
G0 X93.712 Y96.675
G0 X93.097 Y97.488
G0 X92.658 Y98.396
G0 X92.514 Y98.946
G0 X92.351 Y99.825
G0 X93.806 Y99.94
;TIME_ELAPSED:67.068296
;LAYER:-5
;TYPE:SUPPORT
G1 F2700 E70.33559
G1 F1125 X97.26 Y96.487 E70.82292
G1 X96.846 Y96.544 E70.86462
G1 X96.331 Y96.667 E70.91745
G1 X95.955 Y96.824 E70.9581
G1 X95.578 Y97.023 E71.00064
G1 X95.332 Y97.186 E71.03009
G1 X94.996 Y97.459 E71.07328
G1 X94.789 Y97.667 E71.10256
G1 X94.564 Y97.924 E71.13665
G1 X94.291 Y98.334 E71.1858
G1 X94.103 Y98.719 E71.22855
G1 X93.966 Y99.093 E71.26829
G1 X93.888 Y99.384 E71.29835
G1 X93.806 Y99.909 E71.35137
G1 X93.806 Y100.411 E71.40146
G1 X93.861 Y100.833 E71.44392
G1 X93.951 Y101.21 E71.4826
G1 X98.678 Y96.482 E72.1497
G1 X100.093 Y96.482 E72.29089
G1 X94.386 Y102.188 E73.09614
G1 X94.904 Y103.085 E73.19949
G1 X101.507 Y96.482 E74.13125
G1 X102.921 Y96.482 E74.27234
G1 X95.421 Y103.982 E75.33067
G1 X95.939 Y104.878 E75.43394
G1 X104.335 Y96.482 E76.6187
G1 X105.749 Y96.482 E76.75979
G1 X96.457 Y105.775 E78.07106
G1 X96.974 Y106.672 E78.17437
G1 X107.164 Y96.482 E79.61229
G1 X108.578 Y96.482 E79.75338
G1 X97.492 Y107.568 E81.31773
G1 X98.01 Y108.464 E81.421
G1 X109.992 Y96.482 E83.11179
G1 X111.406 Y96.482 E83.25288
G1 X98.528 Y109.361 E85.07018
G1 X99.045 Y110.257 E85.17339
G1 X112.821 Y96.482 E87.11727
G1 X114.235 Y96.482 E87.25836
G1 X99.563 Y111.154 E89.32873
G1 X100.081 Y112.05 E89.432
G1 X115.649 Y96.482 E91.62882
G1 X117.063 Y96.482 E91.7699
G1 X100.598 Y112.947 E94.09329
G1 X101.116 Y113.844 E94.19665
G1 X118.477 Y96.482 E96.64654
G1 X119.892 Y96.482 E96.78773
G1 X101.634 Y114.74 E99.36413
G1 X102.152 Y115.636 E99.4674
G1 X121.306 Y96.482 E102.17024
G1 X122.72 Y96.482 E102.31133
G1 X102.669 Y116.533 E105.14074
G1 X103.187 Y117.429 E105.24401
G1 X124.134 Y96.482 E108.19986
G1 X125.548 Y96.482 E108.34095
G1 X103.704 Y118.326 E111.42337
G1 X104.222 Y119.223 E111.52673
G1 X126.963 Y96.482 E114.73573
G1 X128.377 Y96.482 E114.87682
G1 X104.74 Y120.119 E118.21225
G1 X105.258 Y121.015 E118.31552
G1 X129.791 Y96.482 E121.77739
G1 X131.205 Y96.482 E121.91848
G1 X105.776 Y121.912 E125.50686
G1 X106.293 Y122.808 E125.61008
G1 X132.619 Y96.482 E129.32496
G1 X134.034 Y96.482 E129.46615
G1 X106.811 Y123.705 E133.30761
G1 X107.328 Y124.602 E133.41092
G1 X135.448 Y96.482 E137.37895
G1 X136.862 Y96.482 E137.52004
G1 X107.846 Y125.498 E141.61451
G1 X108.364 Y126.395 E141.71787
G1 X138.202 Y96.556 E145.9284
G1 X138.449 Y96.607 E145.95357
G1 X138.761 Y96.706 E145.98623
G1 X139.258 Y96.915 E146.04003
G1 X108.881 Y127.291 E150.32648
G1 X109.4 Y128.187 E150.4298
G1 X140.077 Y97.51 E154.75865
G1 X140.465 Y97.972 E154.81885
G1 X140.69 Y98.311 E154.85945
G1 X109.917 Y129.084 E159.20185
G1 X110.435 Y129.981 E159.30521
G1 X141.099 Y99.316 E163.6323
G1 X141.192 Y99.907 E163.692
G1 X141.192 Y100.418 E163.74298
G1 X141.16 Y100.67 E163.76833
G1 X110.952 Y130.877 E168.03093
G1 X111.47 Y131.774 E168.13429
G1 X140.009 Y103.234 E172.16152
G1 X138.078 Y106.58 E172.54699
G1 X111.988 Y132.67 E176.22858
G1 X112.505 Y133.567 E176.33188
G1 X136.146 Y109.926 E179.66788
G1 X134.214 Y113.272 E180.0534
G1 X113.023 Y134.463 E183.04368
G1 X113.541 Y135.36 E183.14704
G1 X132.282 Y116.618 E185.79167
G1 X130.35 Y119.964 E186.17719
G1 X114.059 Y136.256 E188.4761
G1 X114.337 Y136.74 E188.53179
G1 X114.598 Y137.131 E188.5787
G1 X128.419 Y123.31 E190.52899
G1 X126.487 Y126.656 E190.91451
G1 X115.327 Y137.816 E192.48931
G1 X115.72 Y138.063 E192.53563
G1 X116.238 Y138.319 E192.59328
G1 X124.555 Y130.002 E193.7669
G1 X122.623 Y133.349 E194.15251
G1 X117.456 Y138.515 E194.88156
G1 X117.819 Y138.505 E194.91779
G1 X118.222 Y138.451 E194.95836
G1 X118.721 Y138.317 E195.00992
G1 X119.345 Y138.041 E195.078
G1 X120.682 Y136.704 E195.26666
G1 X120.519 Y136.954 E195.29644
G1 X120.262 Y137.285 E195.33826
G1 X120.039 Y137.506 E195.36958
G1 X119.796 Y137.72 E195.40189
G1 X119.448 Y137.962 E195.44419
G1 F2700 E190.44419
G0 F300 X119.448 Y137.962 Z0.74
G0 F9000 X116.228 Y138.29
;TIME_ELAPSED:135.717467
;LAYER:-4
;TYPE:SUPPORT-INTERFACE
G1 F2700 E195.44419
G1 F1500 X113.871 Y135.933 E195.55505
G0 F9000 X114.337 Y136.74
G1 F1500 X114.482 Y136.957 E195.56373
G1 X114.689 Y137.223 E195.57494
G1 X114.96 Y137.506 E195.58797
G1 X115.276 Y137.783 E195.60195
G1 X115.72 Y138.063 E195.61941
G1 X116.066 Y138.234 E195.63225
G1 X116.466 Y138.372 E195.64632
G1 X116.994 Y138.49 E195.66432
G1 X113.098 Y134.594 E195.84757
G1 X112.325 Y133.255 E195.89899
G1 X117.604 Y138.534 E196.1473
G1 X118.102 Y138.467 E196.16402
G1 X111.552 Y131.917 E196.47211
G1 X110.779 Y130.578 E196.52353
G1 X118.58 Y138.379 E196.89047
G1 X118.972 Y138.206 E196.90472
G1 X110.006 Y129.239 E197.32647
G1 X109.233 Y127.9 E197.3779
G1 X119.357 Y138.025 E197.85412
G1 X119.691 Y137.793 E197.86765
G1 X108.46 Y126.562 E198.39592
G1 X107.686 Y125.222 E198.44739
G1 X120.002 Y137.538 E199.0267
G1 X120.285 Y137.256 E199.03999
G1 X106.913 Y123.884 E199.66896
G1 X106.14 Y122.545 E199.72039
G1 X120.532 Y136.936 E200.39732
G1 X120.752 Y136.591 E200.41093
G1 X105.367 Y121.206 E201.13459
G1 X104.594 Y119.868 E201.18599
G1 X120.959 Y136.232 E201.95572
G1 X121.166 Y135.874 E201.96948
G1 X103.821 Y118.529 E202.78533
G1 X103.048 Y117.19 E202.83676
G1 X121.373 Y135.515 E203.69871
G1 X121.58 Y135.157 E203.71246
G1 X102.275 Y115.851 E204.62053
G1 X101.502 Y114.513 E204.67193
G1 X121.787 Y134.798 E205.62607
G1 X121.994 Y134.439 E205.63986
G1 X100.728 Y113.173 E206.64014
G1 X99.955 Y111.835 E206.69154
G1 X122.201 Y134.08 E207.7379
G1 X122.408 Y133.722 E207.75165
G1 X99.183 Y110.496 E208.84411
G1 X98.41 Y109.158 E208.8955
G1 X122.615 Y133.363 E210.03403
G1 X122.823 Y133.005 E210.0478
G1 X97.636 Y107.818 E211.23252
G1 X96.863 Y106.48 E211.28392
G1 X123.03 Y132.646 E212.51471
G1 X123.236 Y132.287 E212.52848
G1 X96.09 Y105.141 E213.80534
G1 X95.317 Y103.802 E213.85676
G1 X123.443 Y131.929 E215.17975
G1 X123.651 Y131.57 E215.19355
G1 X94.544 Y102.464 E216.56263
G1 X94.337 Y102.106 E216.57638
G1 X94.091 Y101.626 E216.59432
G1 X93.997 Y101.351 E216.60399
G1 X123.858 Y131.212 E218.00856
G1 X124.065 Y130.853 E218.02234
G1 X93.806 Y100.594 E219.44563
G1 X93.806 Y100.028 E219.46446
G1 X124.271 Y130.494 E220.89746
G1 X124.479 Y130.135 E220.91126
G1 X93.854 Y99.51 E222.35177
G1 X93.975 Y99.067 E222.36704
G1 X124.686 Y129.777 E223.81157
G1 X124.893 Y129.418 E223.82535
G1 X94.132 Y98.658 E225.27223
G1 X94.318 Y98.278 E225.2863
G1 X125.1 Y129.06 E226.73419
G1 X125.307 Y128.701 E226.74798
G1 X94.55 Y97.944 E228.19469
G1 X94.813 Y97.642 E228.20801
G1 X125.514 Y128.342 E229.65207
G1 X125.721 Y127.984 E229.66582
G1 X95.107 Y97.37 E231.10581
G1 X95.418 Y97.115 E231.11919
G1 X125.928 Y127.625 E232.55429
G1 X126.135 Y127.267 E232.56804
G1 X95.783 Y96.915 E233.99571
G1 X96.17 Y96.735 E234.0099
G1 X126.343 Y126.908 E235.42915
G1 X126.549 Y126.549 E235.44291
G1 X96.602 Y96.602 E236.85153
G1 X97.058 Y96.493 E236.86712
G1 X126.756 Y126.19 E238.264
G1 X126.963 Y125.832 E238.27776
G1 X97.613 Y96.482 E239.65829
G1 X98.179 Y96.482 E239.67712
G1 X127.171 Y125.473 E241.04079
G1 X127.378 Y125.115 E241.05454
G1 X98.745 Y96.482 E242.40135
G1 X99.311 Y96.482 E242.42017
G1 X127.585 Y124.756 E243.7501
G1 X127.791 Y124.397 E243.76386
G1 X99.876 Y96.482 E245.0769
G1 X100.442 Y96.482 E245.09572
G1 X127.999 Y124.039 E246.39192
G1 X128.206 Y123.68 E246.4057
G1 X101.008 Y96.482 E247.68501
G1 X101.573 Y96.482 E247.70381
G1 X128.413 Y123.322 E248.96628
G1 X128.62 Y122.963 E248.98006
G1 X102.139 Y96.482 E250.22565
G1 X102.705 Y96.482 E250.24447
G1 X128.827 Y122.604 E251.47317
G1 X129.034 Y122.246 E251.48692
G1 X103.27 Y96.482 E252.69878
G1 X103.836 Y96.482 E252.71761
G1 X129.241 Y121.887 E253.91258
G1 X129.448 Y121.529 E253.92634
G1 X104.402 Y96.482 E255.10445
G1 X104.967 Y96.482 E255.12324
G1 X129.655 Y121.17 E256.28449
G1 X129.862 Y120.812 E256.29824
G1 X105.533 Y96.482 E257.44263
G1 X106.099 Y96.482 E257.46145
G1 X130.069 Y120.452 E258.58893
G1 X130.276 Y120.094 E258.60268
G1 X106.664 Y96.482 E259.71332
G1 X107.23 Y96.482 E259.73214
G1 X130.483 Y119.735 E260.82589
G1 X130.691 Y119.377 E260.83966
G1 X107.796 Y96.482 E261.91657
G1 X108.361 Y96.482 E261.93537
G1 X130.898 Y119.018 E262.99541
G1 X131.104 Y118.659 E263.00918
G1 X108.927 Y96.482 E264.05232
G1 X109.493 Y96.482 E264.07114
G1 X131.311 Y118.301 E265.09742
G1 X131.519 Y117.942 E265.11122
G1 X110.059 Y96.482 E266.12063
G1 X110.624 Y96.482 E266.13942
G1 X131.726 Y117.584 E267.132
G1 X131.933 Y117.225 E267.14578
G1 X111.19 Y96.482 E268.12147
G1 X111.756 Y96.482 E268.14029
G1 X132.14 Y116.867 E269.09912
G1 X132.347 Y116.507 E269.11293
G1 X112.321 Y96.482 E270.05487
G1 X112.887 Y96.482 E270.07369
G1 X132.554 Y116.149 E270.99877
G1 X132.761 Y115.79 E271.01255
G1 X113.453 Y96.482 E271.92074
G1 X114.018 Y96.482 E271.93953
G1 X132.968 Y115.432 E272.83088
G1 X133.175 Y115.073 E272.84466
G1 X114.584 Y96.482 E273.71913
G1 X115.15 Y96.482 E273.73795
G1 X133.382 Y114.714 E274.59553
G1 X133.589 Y114.356 E274.60929
G1 X115.715 Y96.482 E275.45002
G1 X116.281 Y96.482 E275.46885
G1 X133.796 Y113.997 E276.2927
G1 X134.003 Y113.639 E276.30646
G1 X116.847 Y96.482 E277.11344
G1 X117.412 Y96.482 E277.13224
G1 X134.21 Y113.28 E277.92236
G1 X134.418 Y112.922 E277.93613
G1 X117.978 Y96.482 E278.70942
G1 X118.544 Y96.482 E278.72825
G1 X134.624 Y112.562 E279.4846
G1 X134.831 Y112.204 E279.49835
G1 X119.11 Y96.482 E280.23785
G1 X119.675 Y96.482 E280.25664
G1 X135.039 Y111.845 E280.97929
G1 X135.246 Y111.487 E280.99304
G1 X120.241 Y96.482 E281.69883
G1 X120.807 Y96.482 E281.71766
G1 X135.453 Y111.128 E282.40656
G1 X135.659 Y110.769 E282.42033
G1 X121.372 Y96.482 E283.09234
G1 X121.938 Y96.482 E283.11117
G1 X135.867 Y110.411 E283.76635
G1 X136.074 Y110.052 E283.78013
G1 X122.504 Y96.482 E284.41842
G1 X123.069 Y96.482 E284.43721
G1 X136.281 Y109.694 E285.05867
G1 X136.488 Y109.335 E285.07245
G1 X123.635 Y96.482 E285.67701
G1 X124.201 Y96.482 E285.69584
G1 X136.695 Y108.977 E286.28354
G1 X136.902 Y108.617 E286.29735
G1 X124.766 Y96.482 E286.86817
G1 X125.332 Y96.482 E286.887
G1 X137.109 Y108.259 E287.44095
G1 X137.316 Y107.9 E287.45473
G1 X125.898 Y96.482 E287.9918
G1 X126.463 Y96.482 E288.01059
G1 X137.523 Y107.542 E288.53082
