;FLAVOR:Marlin
;TIME:4735
;Filament used: 2.97517m
;Layer height: 0.2
;MINX:69.006
;MINY:86.679
;MINZ:0.2
;MAXX:165.99
;MAXY:148.321
;MAXZ:35
;Generated with Cura_SteamEngine 5.3.1
M140 S50
M105
M190 S50
M104 S200
M105
M109 S200
M82 ;absolute extrusion mode
; Ender 3 Custom Start G-code
G92 E0 ; Reset Extruder
G28 ; Home all axes
G1 Z2.0 F3000 ; Move Z Axis up little to prevent scratching of Heat Bed
G1 X0.1 Y20 Z0.3 F5000.0 ; Move to start position
G1 X0.1 Y200.0 Z0.3 F1500.0 E15 ; Draw the first line
G1 X0.4 Y200.0 Z0.3 F5000.0 ; Move to side a little
G1 X0.4 Y20 Z0.3 F1500.0 E30 ; Draw the second line
G92 E0 ; Reset Extruder
G1 Z2.0 F3000 ; Move Z Axis up little to prevent scratching of Heat Bed
G1 X5 Y20 Z0.3 F5000.0 ; Move over to prevent blob squish
G92 E0
G92 E0
G1 F2700 E-5
;LAYER_COUNT:175
;LAYER:0
M107
G0 F6000 X74.58 Y90.268 Z0.2
;TYPE:SKIRT
G1 F2700 E0
G1 F1200 X74.96 Y89.976 E0.01594
G1 X75.7 Y89.458 E0.04598
G1 X76.654 Y88.921 E0.08239
G1 X77.105 Y88.698 E0.09913
G1 X77.931 Y88.334 E0.12915
G1 X79.005 Y87.983 E0.16673
G1 X79.509 Y87.849 E0.18408
G1 X80.391 Y87.656 E0.21411
G1 X81.287 Y87.542 E0.24415
G1 X81.921 Y87.509 E0.26526
G1 X83.496 Y87.479 E0.31766
G1 X121.796 Y87.479 E1.59152
G1 X122.603 Y87.491 E1.61836
G1 X125.588 Y87.595 E1.71771
G1 X128.112 Y87.608 E1.80166
G1 X130.995 Y87.537 E1.89757
G1 X131.87 Y87.502 E1.9267
G1 X132.763 Y87.495 E1.9564
G1 X133.665 Y87.537 E1.98643
G1 X134.586 Y87.663 E2.01735
G1 X134.847 Y87.711 E2.02618
G1 X135.512 Y87.853 E2.0488
G1 X136.383 Y88.091 E2.07883
G1 X137.213 Y88.399 E2.10827
G1 X137.629 Y88.574 E2.12328
G1 X138.445 Y88.961 E2.15332
G1 X139.323 Y89.483 E2.1873
G1 X139.756 Y89.771 E2.20459
G1 X140.485 Y90.304 E2.23463
G1 X141.411 Y91.144 E2.27621
G1 X141.76 Y91.502 E2.29284
G1 X142.361 Y92.176 E2.32287
G1 X142.9 Y92.9 E2.3529
G1 X143.185 Y93.345 E2.37047
G1 X143.885 Y94.503 E2.41548
G1 X163.209 Y127.97 E3.70082
G1 X163.476 Y128.447 E3.719
G1 X163.91 Y129.278 E3.75019
G1 X164.287 Y130.099 E3.78023
G1 X164.689 Y131.296 E3.82223
G1 X164.814 Y131.762 E3.83828
G1 X165.009 Y132.644 E3.86832
G1 X165.14 Y133.731 E3.90474
G1 X165.173 Y134.229 E3.92134
G1 X165.192 Y135.131 E3.95135
G1 X165.11 Y136.214 E3.98747
G1 X165.047 Y136.7 E4.00377
G1 X164.892 Y137.59 E4.03382
G1 X164.577 Y138.708 E4.07245
G1 X164.406 Y139.205 E4.08993
G1 X164.075 Y140.045 E4.11996
G1 X163.517 Y141.117 E4.16016
G1 X163.287 Y141.502 E4.17507
G1 X162.79 Y142.256 E4.20511
G1 X162.22 Y142.973 E4.23557
G1 X161.894 Y143.347 E4.25207
G1 X161.271 Y144.001 E4.28212
G1 X160.407 Y144.743 E4.32
G1 X160.027 Y145.034 E4.33591
G1 X159.286 Y145.551 E4.36597
G1 X158.346 Y146.079 E4.40183
G1 X157.895 Y146.302 E4.41856
G1 X157.069 Y146.666 E4.44858
G1 X155.995 Y147.017 E4.48616
G1 X155.491 Y147.151 E4.50351
G1 X154.609 Y147.344 E4.53354
G1 X153.713 Y147.458 E4.56358
G1 X153.079 Y147.491 E4.58469
G1 X151.504 Y147.521 E4.63709
G1 X113.069 Y147.52 E5.91544
G1 X112.397 Y147.509 E5.9378
G1 X109.412 Y147.405 E6.03714
G1 X106.888 Y147.392 E6.12109
G1 X104.005 Y147.463 E6.217
G1 X103.13 Y147.498 E6.24613
G1 X102.235 Y147.505 E6.2759
G1 X101.333 Y147.463 E6.30593
G1 X100.249 Y147.305 E6.34237
G1 X99.761 Y147.207 E6.35892
G1 X98.884 Y146.991 E6.38896
G1 X97.864 Y146.63 E6.42495
G1 X97.42 Y146.446 E6.44094
G1 X96.602 Y146.064 E6.47096
G1 X95.663 Y145.507 E6.50728
G1 X95.227 Y145.216 E6.52471
G1 X94.498 Y144.682 E6.55477
G1 X93.585 Y143.852 E6.59581
G1 X93.238 Y143.496 E6.61234
G1 X92.637 Y142.822 E6.64238
G1 X92.098 Y142.097 E6.67242
G1 X91.809 Y141.647 E6.69021
G1 X91.104 Y140.479 E6.73559
G1 X71.753 Y106.962 E8.02282
G1 X71.34 Y106.209 E8.05139
G1 X71.078 Y105.696 E8.07055
G1 X70.703 Y104.875 E8.10057
G1 X70.311 Y103.701 E8.14173
G1 X70.187 Y103.239 E8.15764
G1 X69.991 Y102.357 E8.18769
G1 X69.861 Y101.279 E8.22381
G1 X69.825 Y100.743 E8.24168
G1 X69.804 Y99.84 E8.27172
G1 X69.914 Y98.555 E8.31461
G1 X69.982 Y98.099 E8.32995
G1 X70.154 Y97.212 E8.36
G1 X70.421 Y96.295 E8.39177
G1 X70.589 Y95.805 E8.40899
G1 X70.92 Y94.964 E8.43905
G1 X71.488 Y93.872 E8.47999
G1 X71.718 Y93.488 E8.49488
G1 X72.215 Y92.734 E8.52492
G1 X72.798 Y92.005 E8.55596
G1 X73.125 Y91.632 E8.57246
G1 X73.75 Y90.98 E8.6025
G1 X74.58 Y90.268 E8.63887
G0 F6000 X74.336 Y89.951
G1 F1200 X74.731 Y89.648 E8.65543
G1 X75.504 Y89.109 E8.68678
G1 X76.477 Y88.562 E8.7239
G1 X76.944 Y88.332 E8.74121
G1 X77.77 Y87.968 E8.77124
G1 X78.902 Y87.596 E8.81087
G1 X79.423 Y87.458 E8.82879
G1 X80.305 Y87.265 E8.85882
G1 X81.237 Y87.145 E8.89008
G1 X81.913 Y87.109 E8.91259
G1 X83.488 Y87.079 E8.96499
G1 X121.802 Y87.079 E10.23932
G1 X122.617 Y87.091 E10.26643
G1 X125.602 Y87.195 E10.36577
G1 X128.104 Y87.208 E10.44899
G1 X130.979 Y87.137 E10.54464
G1 X131.867 Y87.102 E10.5742
G1 X132.782 Y87.095 E10.60463
G1 X133.684 Y87.137 E10.63466
G1 X134.658 Y87.27 E10.66736
G1 X134.931 Y87.32 E10.67659
G1 X135.617 Y87.467 E10.69993
G1 X136.522 Y87.716 E10.73114
G1 X137.368 Y88.03 E10.76116
G1 X137.784 Y88.205 E10.77617
G1 X138.649 Y88.617 E10.80804
G1 X139.545 Y89.15 E10.84271
G1 X139.992 Y89.448 E10.86058
G1 X140.754 Y90.008 E10.89203
G1 X141.68 Y90.848 E10.93361
G1 X142.059 Y91.236 E10.95165
G1 X142.682 Y91.937 E10.98285
G1 X143.237 Y92.684 E11.0138
G1 X143.527 Y93.138 E11.03172
G1 X144.231 Y94.303 E11.07699
G1 X163.558 Y127.775 E12.36253
G1 X163.831 Y128.262 E12.3811
G1 X164.274 Y129.111 E12.41295
G1 X164.651 Y129.932 E12.443
G1 X165.075 Y131.192 E12.48722
G1 X165.205 Y131.676 E12.50388
G1 X165.4 Y132.558 E12.53393
G1 X165.539 Y133.705 E12.57236
G1 X165.573 Y134.221 E12.58956
G1 X165.591 Y135.161 E12.62083
G1 X165.507 Y136.265 E12.65765
G1 X165.441 Y136.769 E12.67456
G1 X165.286 Y137.659 E12.7046
G1 X164.955 Y138.838 E12.74533
G1 X164.778 Y139.352 E12.76341
G1 X164.43 Y140.23 E12.79483
G1 X163.872 Y141.302 E12.83502
G1 X163.621 Y141.722 E12.8513
G1 X163.103 Y142.505 E12.88252
G1 X162.522 Y143.236 E12.91358
G1 X162.184 Y143.623 E12.93067
G1 X161.561 Y144.277 E12.96071
G1 X160.65 Y145.061 E13.00069
G1 X160.256 Y145.362 E13.01718
G1 X159.482 Y145.9 E13.04853
G1 X158.523 Y146.438 E13.0851
G1 X158.056 Y146.668 E13.10242
G1 X157.23 Y147.032 E13.13244
G1 X156.098 Y147.404 E13.17207
G1 X155.577 Y147.542 E13.19
G1 X154.695 Y147.735 E13.22003
G1 X153.763 Y147.855 E13.25128
G1 X153.087 Y147.891 E13.2738
G1 X151.512 Y147.921 E13.32619
G1 X113.062 Y147.92 E14.60504
G1 X112.383 Y147.909 E14.62763
G1 X109.398 Y147.805 E14.72697
G1 X106.896 Y147.792 E14.81019
G1 X104.021 Y147.863 E14.90584
G1 X103.133 Y147.898 E14.9354
G1 X102.216 Y147.905 E14.9659
G1 X101.314 Y147.863 E14.99593
G1 X100.17 Y147.697 E15.03438
G1 X99.665 Y147.595 E15.05152
G1 X98.751 Y147.368 E15.08284
G1 X97.711 Y147 E15.11953
G1 X97.267 Y146.816 E15.13552
G1 X96.398 Y146.408 E15.16745
G1 X95.441 Y145.84 E15.20446
G1 X94.991 Y145.539 E15.22247
G1 X94.229 Y144.978 E15.25394
G1 X93.316 Y144.148 E15.29498
G1 X92.939 Y143.762 E15.31292
G1 X92.316 Y143.061 E15.34412
G1 X91.761 Y142.313 E15.3751
G1 X91.467 Y141.854 E15.39323
G1 X90.758 Y140.679 E15.43887
G1 X71.402 Y107.154 E16.72642
G1 X70.984 Y106.391 E16.75536
G1 X70.714 Y105.862 E16.77511
G1 X70.339 Y105.041 E16.80513
G1 X69.925 Y103.805 E16.84848
G1 X69.797 Y103.326 E16.86497
G1 X69.594 Y102.405 E16.89634
G1 X69.462 Y101.306 E16.93316
G1 X69.425 Y100.752 E16.95163
G1 X69.405 Y99.806 E16.9831
G1 X69.518 Y98.496 E17.02683
G1 X69.589 Y98.023 E17.04274
G1 X69.761 Y97.136 E17.07279
G1 X70.043 Y96.165 E17.10642
G1 X70.217 Y95.659 E17.12422
G1 X70.565 Y94.779 E17.15569
G1 X71.145 Y93.666 E17.19743
G1 X71.384 Y93.268 E17.21287
G1 X71.881 Y92.514 E17.24291
G1 X72.497 Y91.741 E17.27579
G1 X72.836 Y91.355 E17.29287
G1 X73.461 Y90.703 E17.32291
G1 X74.336 Y89.951 E17.36129
G0 F6000 X74.075 Y89.648
G1 F1200 X74.502 Y89.32 E17.37919
G1 X75.308 Y88.76 E17.41184
G1 X76.3 Y88.203 E17.44968
G1 X76.783 Y87.966 E17.46757
G1 X77.645 Y87.588 E17.49888
G1 X78.8 Y87.209 E17.53931
G1 X79.337 Y87.067 E17.55778
G1 X80.254 Y86.868 E17.58899
G1 X81.186 Y86.748 E17.62025
G1 X81.905 Y86.709 E17.64419
G1 X83.48 Y86.679 E17.69659
G1 X121.808 Y86.679 E18.97138
G1 X122.631 Y86.691 E18.99876
G1 X125.616 Y86.795 E19.0981
G1 X128.096 Y86.808 E19.18059
G1 X130.963 Y86.737 E19.27597
G1 X131.864 Y86.702 E19.30596
G1 X132.801 Y86.695 E19.33713
G1 X133.703 Y86.737 E19.36716
G1 X134.73 Y86.877 E19.40164
G1 X135.015 Y86.929 E19.41127
G1 X135.723 Y87.081 E19.43536
G1 X136.628 Y87.33 E19.46658
G1 X137.523 Y87.661 E19.49831
G1 X137.956 Y87.844 E19.51395
G1 X138.853 Y88.273 E19.54702
G1 X139.767 Y88.817 E19.5824
G1 X140.229 Y89.126 E19.60088
G1 X141.023 Y89.712 E19.63371
G1 X141.966 Y90.568 E19.67606
G1 X142.358 Y90.97 E19.69474
G1 X143.003 Y91.698 E19.72709
G1 X143.558 Y92.445 E19.75804
G1 X143.869 Y92.931 E19.77723
G1 X144.577 Y94.103 E19.82277
G1 X163.907 Y127.579 E21.10848
G1 X164.186 Y128.077 E21.12747
G1 X164.638 Y128.944 E21.15999
G1 X165.015 Y129.765 E21.19003
G1 X165.454 Y131.064 E21.23564
G1 X165.596 Y131.59 E21.25376
G1 X165.791 Y132.472 E21.2838
G1 X165.938 Y133.679 E21.32425
G1 X165.973 Y134.213 E21.34204
G1 X165.99 Y135.191 E21.37458
G1 X165.904 Y136.317 E21.41214
G1 X165.835 Y136.838 E21.42962
G1 X165.68 Y137.728 E21.45966
G1 X165.333 Y138.968 E21.50249
G1 X165.15 Y139.499 E21.52117
G1 X164.785 Y140.415 E21.55397
G1 X164.227 Y141.487 E21.59416
G1 X163.955 Y141.943 E21.61182
G1 X163.437 Y142.726 E21.64305
G1 X162.823 Y143.499 E21.67588
G1 X162.474 Y143.899 E21.69354
G1 X161.851 Y144.553 E21.72358
G1 X160.893 Y145.379 E21.76565
G1 X160.499 Y145.68 E21.78214
G1 X159.678 Y146.249 E21.81537
G1 X158.7 Y146.797 E21.85265
G1 X158.217 Y147.034 E21.87055
G1 X157.355 Y147.412 E21.90185
G1 X156.2 Y147.791 E21.94229
G1 X155.663 Y147.933 E21.96076
G1 X154.746 Y148.132 E21.99197
G1 X153.814 Y148.252 E22.02322
G1 X153.095 Y148.291 E22.04717
G1 X151.52 Y148.321 E22.09957
G1 X113.056 Y148.32 E23.37889
G1 X112.369 Y148.309 E23.40174
G1 X109.384 Y148.205 E23.50108
G1 X106.904 Y148.192 E23.58357
G1 X104.037 Y148.263 E23.67895
G1 X103.136 Y148.298 E23.70894
G1 X102.197 Y148.305 E23.74017
G1 X101.295 Y148.263 E23.77021
G1 X100.091 Y148.089 E23.81067
G1 X99.569 Y147.983 E23.82838
G1 X98.618 Y147.745 E23.86099
G1 X97.558 Y147.37 E23.89839
G1 X97.097 Y147.178 E23.915
G1 X96.194 Y146.752 E23.94821
G1 X95.237 Y146.184 E23.98522
G1 X94.754 Y145.861 E24.00455
G1 X93.96 Y145.274 E24.03739
G1 X93.047 Y144.444 E24.07843
G1 X92.64 Y144.028 E24.09778
G1 X92.017 Y143.327 E24.12898
G1 X91.424 Y142.529 E24.16204
G1 X91.125 Y142.061 E24.18051
G1 X90.412 Y140.879 E24.22643
G1 X71.051 Y107.346 E25.51429
G1 X70.628 Y106.573 E25.5436
G1 X70.35 Y106.028 E25.56395
G1 X69.975 Y105.207 E25.59397
G1 X69.539 Y103.908 E25.63954
G1 X69.406 Y103.412 E25.65662
G1 X69.203 Y102.491 E25.68799
G1 X69.063 Y101.333 E25.72678
G1 X69.025 Y100.76 E25.74588
G1 X69.006 Y99.772 E25.77875
G1 X69.122 Y98.437 E25.82332
G1 X69.196 Y97.947 E25.8398
G1 X69.368 Y97.06 E25.86985
G1 X69.665 Y96.035 E25.90535
G1 X69.845 Y95.512 E25.92374
G1 X70.21 Y94.594 E25.9566
G1 X70.802 Y93.46 E25.99915
G1 X71.05 Y93.048 E26.01514
G1 X71.568 Y92.265 E26.04637
G1 X72.196 Y91.477 E26.07988
G1 X72.547 Y91.078 E26.09756
G1 X73.172 Y90.426 E26.1276
G1 X74.075 Y89.648 E26.16724
G1 F2700 E21.16724
;MESH:solder_stand.stl
G0 F6000 X96.774 Y107.516
G0 X101.301 Y112.881
G0 X102.439 Y113.834
G0 X102.498 Y113.54
;TYPE:WALL-INNER
G1 F2700 E26.16724
G1 F1200 X101.795 Y113.397 E26.1911
G1 X101.181 Y112.989 E26.21562
G1 X100.78 Y112.387 E26.23968
G1 X100.642 Y111.693 E26.26321
G1 X100.779 Y110.974 E26.28756
G1 X101.174 Y110.371 E26.31153
G1 X101.786 Y109.961 E26.33604
G1 X102.496 Y109.817 E26.36013
G1 X103.202 Y109.959 E26.38408
G1 X103.812 Y110.358 E26.40833
G1 X104.219 Y110.971 E26.4328
G1 X104.362 Y111.679 E26.45682
G1 X104.22 Y112.384 E26.48074
G1 X103.819 Y112.992 E26.50497
G1 X103.215 Y113.396 E26.52914
G1 X102.498 Y113.54 E26.55346
G0 F6000 X102.439 Y113.834
G0 X103.193 Y118.242
G0 X103.223 Y118.539
G1 F1200 X103.939 Y118.427 E26.57756
G1 X104.626 Y118.242 E26.60123
G1 X105.303 Y117.982 E26.62535
G1 X105.952 Y117.653 E26.64955
G1 X106.55 Y117.262 E26.67331
G1 X107.108 Y116.812 E26.69715
G1 X107.636 Y116.285 E26.72197
G1 X108.082 Y115.732 E26.7456
G1 X108.472 Y115.133 E26.76937
G1 X108.805 Y114.483 E26.79366
G1 X109.063 Y113.807 E26.81773
G1 X109.247 Y113.121 E26.84135
G1 X109.361 Y112.4 E26.86563
G1 X109.399 Y111.68 E26.88961
G1 X109.36 Y110.956 E26.91372
G1 X109.247 Y110.238 E26.9379
G1 X109.063 Y109.552 E26.96152
G1 X108.803 Y108.876 E26.98561
G1 X108.472 Y108.225 E27.0099
G1 X108.082 Y107.627 E27.03365
G1 X107.636 Y107.074 E27.05728
G1 X107.109 Y106.547 E27.08206
G1 X106.553 Y106.097 E27.10585
G1 X105.956 Y105.708 E27.12955
G1 X105.306 Y105.378 E27.1538
G1 X104.629 Y105.118 E27.17792
G1 X103.943 Y104.932 E27.20156
G1 X103.226 Y104.82 E27.2257
G1 X102.502 Y104.781 E27.24981
G1 X101.778 Y104.82 E27.27393
G1 X101.061 Y104.932 E27.29806
G1 X100.374 Y105.117 E27.32173
G1 X99.697 Y105.377 E27.34585
G1 X99.048 Y105.706 E27.37005
G1 X98.454 Y106.094 E27.39365
G1 X97.894 Y106.545 E27.41756
G1 X97.364 Y107.074 E27.44247
G1 X96.918 Y107.627 E27.4661
G1 X96.528 Y108.225 E27.48984
G1 X96.196 Y108.876 E27.51415
G1 X95.937 Y109.552 E27.53823
G1 X95.753 Y110.238 E27.56185
G1 X95.64 Y110.956 E27.58602
G1 X95.601 Y111.679 E27.61011
G1 X95.64 Y112.403 E27.63422
G1 X95.753 Y113.121 E27.6584
G1 X95.937 Y113.807 E27.68202
G1 X96.196 Y114.483 E27.7061
G1 X96.528 Y115.133 E27.73037
G1 X96.918 Y115.733 E27.75417
G1 X97.364 Y116.286 E27.7778
G1 X97.891 Y116.811 E27.80254
G1 X98.447 Y117.261 E27.82634
G1 X99.044 Y117.651 E27.85005
G1 X99.694 Y117.982 E27.87431
G1 X100.371 Y118.241 E27.89842
G1 X101.058 Y118.426 E27.92209
G1 X101.773 Y118.539 E27.94616
G1 X102.498 Y118.578 E27.97031
G1 X103.223 Y118.539 E27.99446
G0 F6000 X103.265 Y118.937
;TYPE:WALL-OUTER
G1 F1200 X104.022 Y118.819 E28.01994
G1 X104.75 Y118.623 E28.04502
G1 X105.465 Y118.348 E28.0705
G1 X106.152 Y118 E28.09611
G1 X106.786 Y117.586 E28.12129
G1 X107.376 Y117.11 E28.14651
G1 X107.934 Y116.553 E28.17273
G1 X108.406 Y115.968 E28.19773
G1 X108.819 Y115.333 E28.22293
G1 X109.171 Y114.646 E28.2486
G1 X109.444 Y113.931 E28.27406
G1 X109.639 Y113.204 E28.29909
G1 X109.759 Y112.442 E28.32475
G1 X109.799 Y111.68 E28.35013
G1 X109.758 Y110.914 E28.37564
G1 X109.639 Y110.155 E28.40119
G1 X109.444 Y109.428 E28.42623
G1 X109.169 Y108.713 E28.45171
G1 X108.819 Y108.025 E28.47738
G1 X108.406 Y107.391 E28.50255
G1 X107.934 Y106.806 E28.52755
G1 X107.377 Y106.249 E28.55375
G1 X106.789 Y105.773 E28.57891
G1 X106.156 Y105.361 E28.60403
G1 X105.469 Y105.012 E28.62966
G1 X104.753 Y104.737 E28.65517
G1 X104.026 Y104.54 E28.68022
G1 X103.268 Y104.422 E28.70574
G1 X102.502 Y104.38 E28.73125
G1 X101.736 Y104.422 E28.75677
G1 X100.978 Y104.54 E28.78228
G1 X100.25 Y104.736 E28.80736
G1 X99.535 Y105.011 E28.83284
G1 X98.848 Y105.359 E28.85845
G1 X98.218 Y105.77 E28.88347
G1 X97.626 Y106.247 E28.90876
G1 X97.066 Y106.806 E28.93507
G1 X96.594 Y107.391 E28.96007
G1 X96.181 Y108.025 E28.98524
G1 X95.83 Y108.713 E29.01093
G1 X95.556 Y109.428 E29.0364
G1 X95.361 Y110.155 E29.06143
G1 X95.242 Y110.914 E29.08698
G1 X95.201 Y111.679 E29.11247
G1 X95.242 Y112.445 E29.13798
G1 X95.361 Y113.204 E29.16353
G1 X95.556 Y113.931 E29.18857
G1 X95.83 Y114.646 E29.21403
G1 X96.181 Y115.333 E29.23969
G1 X96.594 Y115.968 E29.26489
G1 X97.066 Y116.554 E29.28991
G1 X97.623 Y117.109 E29.31607
G1 X98.211 Y117.585 E29.34123
G1 X98.843 Y117.997 E29.36632
G1 X99.531 Y118.348 E29.39201
G1 X100.247 Y118.622 E29.41751
G1 X100.974 Y118.818 E29.44255
G1 X101.731 Y118.937 E29.46804
G1 X102.498 Y118.978 E29.49359
G1 X103.265 Y118.937 E29.51913
G1 F2700 E24.51913
G0 F6000 X103.193 Y118.242
G0 X102.361 Y113.818
G0 X102.497 Y113.133
G1 F2700 E29.51913
G1 F1200 X101.948 Y113.022 E29.53776
G1 X101.467 Y112.703 E29.55696
G1 X101.157 Y112.236 E29.5756
G1 X101.048 Y111.684 E29.59432
G1 X101.156 Y111.124 E29.61329
G1 X101.472 Y110.655 E29.63209
G1 X101.945 Y110.336 E29.65107
G1 X102.498 Y110.229 E29.6698
G1 X103.053 Y110.337 E29.68861
G1 X103.533 Y110.656 E29.70778
G1 X103.843 Y111.122 E29.72639
