;FLAVOR:Marlin
;TIME:3231
;Filament used: 1.4886m
;Layer height: 0.2
;MINX:71.51
;MINY:71.51
;MINZ:0.2
;MAXX:163.49
;MAXY:163.49
;MAXZ:3
;Generated with Cura_SteamEngine 5.3.1
M140 S50
M105
M190 S50
M104 S200
M105
M109 S200
M82 ;absolute extrusion mode
; Ender 3 Custom Start G-code
G92 E0 ; Reset Extruder
G28 ; Home all axes
G1 Z2.0 F3000 ; Move Z Axis up little to prevent scratching of Heat Bed
G1 X0.1 Y20 Z0.3 F5000.0 ; Move to start position
G1 X0.1 Y200.0 Z0.3 F1500.0 E15 ; Draw the first line
G1 X0.4 Y200.0 Z0.3 F5000.0 ; Move to side a little
G1 X0.4 Y20 Z0.3 F1500.0 E30 ; Draw the second line
G92 E0 ; Reset Extruder
G1 Z2.0 F3000 ; Move Z Axis up little to prevent scratching of Heat Bed
G1 X5 Y20 Z0.3 F5000.0 ; Move over to prevent blob squish
G92 E0
G92 E0
G1 F2700 E-5
;LAYER_COUNT:15
;LAYER:0
M107
G0 F6000 X81.225 Y91.335 Z0.2
;TYPE:SKIRT
G1 F2700 E0
G1 F1200 X81.828 Y90.799 E0.02683
G1 X82.808 Y89.948 E0.07
G1 X84.672 Y88.235 E0.1542
G1 X86.511 Y86.446 E0.23954
G1 X88.28 Y84.625 E0.32398
G1 X89.993 Y82.76 E0.4082
G1 X90.973 Y81.633 E0.45788
G1 X91.349 Y81.212 E0.47665
G1 X91.98 Y80.565 E0.50671
G1 X92.336 Y80.247 E0.52259
G1 X92.958 Y79.723 E0.54964
G1 X93.361 Y79.401 E0.56679
G1 X94.091 Y78.869 E0.59684
G1 X94.793 Y78.443 E0.62415
G1 X95.471 Y78.073 E0.64984
G1 X95.925 Y77.839 E0.66682
G1 X96.745 Y77.462 E0.69684
G1 X97.474 Y77.196 E0.72265
G1 X97.878 Y77.066 E0.73677
G1 X98.719 Y76.82 E0.76591
G1 X99.539 Y76.621 E0.79398
G1 X100.401 Y76.45 E0.82321
G1 X102.931 Y75.911 E0.90924
G1 X105.368 Y75.321 E0.99264
G1 X107.843 Y74.644 E1.07798
G1 X110.285 Y73.904 E1.16285
G1 X112.355 Y73.214 E1.23542
G1 X113.18 Y72.955 E1.26418
G1 X113.701 Y72.805 E1.28222
G1 X114.579 Y72.594 E1.31225
G1 X115.358 Y72.474 E1.33847
G1 X116.17 Y72.385 E1.36563
G1 X116.649 Y72.345 E1.38162
G1 X117.552 Y72.31 E1.41168
G1 X118.32 Y72.343 E1.43724
G1 X119.076 Y72.409 E1.46249
G1 X119.604 Y72.468 E1.48016
G1 X120.496 Y72.608 E1.51019
G1 X121.285 Y72.801 E1.5372
G1 X122.026 Y73.018 E1.56288
G1 X123.188 Y73.39 E1.60346
G1 X124.684 Y73.892 E1.65595
G1 X127.13 Y74.635 E1.74097
G1 X129.57 Y75.302 E1.82511
G1 X132.029 Y75.899 E1.90927
G1 X134.522 Y76.433 E1.99407
G1 X135.51 Y76.632 E2.02759
G1 X136.306 Y76.826 E2.05484
G1 X136.735 Y76.949 E2.06968
G1 X137.507 Y77.191 E2.09659
G1 X138.354 Y77.503 E2.12661
G1 X139.064 Y77.834 E2.15267
G1 X139.465 Y78.04 E2.16766
G1 X140.198 Y78.439 E2.19542
G1 X140.969 Y78.909 E2.22545
G1 X141.629 Y79.392 E2.25265
G1 X142.001 Y79.688 E2.26846
G1 X142.643 Y80.227 E2.29635
G1 X143.305 Y80.841 E2.32638
G1 X143.665 Y81.225 E2.34388
G1 X144.201 Y81.828 E2.37072
G1 X145.052 Y82.808 E2.41389
G1 X146.765 Y84.672 E2.49809
G1 X148.542 Y86.499 E2.58285
G1 X150.373 Y88.279 E2.66779
G1 X152.237 Y89.991 E2.75197
G1 X153.349 Y90.957 E2.80096
G1 X153.788 Y91.349 E2.82053
G1 X154.434 Y91.979 E2.85055
G1 X154.753 Y92.336 E2.86647
G1 X155.277 Y92.958 E2.89352
G1 X155.599 Y93.361 E2.91068
G1 X156.131 Y94.091 E2.94072
G1 X156.56 Y94.798 E2.96823
G1 X156.908 Y95.435 E2.99237
G1 X157.142 Y95.885 E3.00924
G1 X157.522 Y96.704 E3.03927
G1 X157.803 Y97.472 E3.06647
G1 X158.029 Y98.192 E3.09157
G1 X158.18 Y98.719 E3.1098
G1 X158.379 Y99.539 E3.13786
G1 X158.55 Y100.401 E3.16709
G1 X159.089 Y102.931 E3.25313
G1 X159.679 Y105.368 E3.33653
G1 X160.356 Y107.843 E3.42187
G1 X161.096 Y110.285 E3.50674
G1 X161.745 Y112.23 E3.57493
G1 X161.962 Y112.91 E3.59868
G1 X162.191 Y113.689 E3.62568
G1 X162.404 Y114.566 E3.6557
G1 X162.526 Y115.356 E3.68229
G1 X162.583 Y115.851 E3.69886
G1 X162.654 Y116.645 E3.72537
G1 X162.69 Y117.548 E3.75543
G1 X162.657 Y118.315 E3.78096
G1 X162.591 Y119.076 E3.80637
G1 X162.532 Y119.604 E3.82404
G1 X162.392 Y120.496 E3.85407
G1 X162.199 Y121.285 E3.88109
G1 X161.99 Y122 E3.90586
G1 X161.658 Y123.042 E3.94224
G1 X161.108 Y124.684 E3.99983
G1 X160.365 Y127.13 E4.08486
G1 X159.698 Y129.57 E4.16899
G1 X159.101 Y132.029 E4.25315
G1 X158.56 Y134.555 E4.33907
G1 X158.368 Y135.51 E4.37147
G1 X158.174 Y136.306 E4.39872
G1 X157.956 Y137.048 E4.42444
G1 X157.799 Y137.536 E4.44149
G1 X157.484 Y138.382 E4.47152
G1 X157.156 Y139.084 E4.49729
G1 X156.822 Y139.724 E4.5213
G1 X156.561 Y140.198 E4.5393
G1 X156.091 Y140.969 E4.56933
G1 X155.606 Y141.631 E4.59663
G1 X155.118 Y142.237 E4.62251
G1 X154.784 Y142.631 E4.63968
G1 X154.17 Y143.293 E4.66972
G1 X153.79 Y143.649 E4.68703
G1 X153.082 Y144.279 E4.71856
G1 X152.192 Y145.052 E4.75776
G1 X150.328 Y146.765 E4.84196
G1 X148.5 Y148.543 E4.92678
G1 X146.72 Y150.375 E5.01174
G1 X145.007 Y152.24 E5.09596
G1 X144.028 Y153.366 E5.14559
G1 X143.662 Y153.776 E5.16387
G1 X142.713 Y154.709 E5.20813
G1 X142.336 Y155.034 E5.22469
G1 X141.628 Y155.607 E5.25498
G1 X140.897 Y156.138 E5.28503
G1 X140.199 Y156.561 E5.31218
G1 X139.782 Y156.791 E5.32802
G1 X139.087 Y157.154 E5.3541
G1 X138.267 Y157.533 E5.38414
G1 X137.545 Y157.797 E5.40971
G1 X137.137 Y157.929 E5.42397
G1 X136.285 Y158.179 E5.45351
G1 X135.461 Y158.379 E5.48171
G1 X134.599 Y158.55 E5.51094
G1 X132.069 Y159.089 E5.59697
G1 X129.632 Y159.679 E5.68037
G1 X127.157 Y160.356 E5.76571
G1 X124.715 Y161.096 E5.85058
G1 X122.645 Y161.786 E5.92315
G1 X121.82 Y162.045 E5.95191
G1 X121.299 Y162.195 E5.96995
G1 X120.421 Y162.406 E5.99998
G1 X119.642 Y162.526 E6.0262
G1 X118.83 Y162.615 E6.05336
G1 X118.351 Y162.655 E6.06935
G1 X117.448 Y162.69 E6.09941
G1 X116.68 Y162.657 E6.12497
G1 X115.924 Y162.591 E6.15022
G1 X115.396 Y162.532 E6.16789
G1 X114.504 Y162.392 E6.19792
G1 X113.715 Y162.199 E6.22493
G1 X112.974 Y161.982 E6.25061
G1 X111.812 Y161.61 E6.29119
G1 X110.316 Y161.108 E6.34368
G1 X107.87 Y160.365 E6.4287
G1 X105.43 Y159.698 E6.51284
G1 X102.971 Y159.101 E6.597
G1 X100.478 Y158.567 E6.6818
G1 X99.49 Y158.368 E6.71532
G1 X98.694 Y158.174 E6.74257
G1 X98.265 Y158.051 E6.75741
G1 X97.493 Y157.809 E6.78432
G1 X96.646 Y157.497 E6.81434
G1 X95.936 Y157.166 E6.8404
G1 X95.535 Y156.96 E6.85539
G1 X94.802 Y156.561 E6.88315
G1 X94.031 Y156.091 E6.91318
G1 X93.371 Y155.608 E6.94038
G1 X92.999 Y155.312 E6.95619
G1 X92.343 Y154.76 E6.98471
G1 X91.682 Y154.144 E7.01476
G1 X91.339 Y153.778 E7.03144
G1 X90.804 Y153.177 E7.05821
G1 X89.948 Y152.192 E7.10161
G1 X88.235 Y150.328 E7.18581
G1 X86.457 Y148.5 E7.27063
G1 X84.625 Y146.72 E7.35558
G1 X82.76 Y145.007 E7.43981
G1 X81.734 Y144.116 E7.48501
G1 X81.209 Y143.648 E7.5084
G1 X80.563 Y143.017 E7.53843
G1 X80.247 Y142.664 E7.55419
G1 X79.708 Y142.023 E7.58205
G1 X79.386 Y141.618 E7.59926
G1 X78.856 Y140.887 E7.62929
G1 X78.454 Y140.224 E7.65507
G1 X78.062 Y139.507 E7.68225
G1 X77.835 Y139.065 E7.69878
G1 X77.458 Y138.244 E7.72883
G1 X77.203 Y137.545 E7.75358
G1 X77.071 Y137.137 E7.76784
G1 X76.821 Y136.285 E7.79737
G1 X76.621 Y135.461 E7.82557
G1 X76.45 Y134.599 E7.8548
G1 X75.911 Y132.069 E7.94084
G1 X75.321 Y129.632 E8.02423
G1 X74.641 Y127.146 E8.10996
G1 X73.91 Y124.735 E8.19375
G1 X73.214 Y122.645 E8.26702
G1 X72.955 Y121.82 E8.29578
G1 X72.805 Y121.299 E8.31381
G1 X72.594 Y120.421 E8.34385
G1 X72.474 Y119.642 E8.37006
G1 X72.385 Y118.828 E8.3973
G1 X72.345 Y118.348 E8.41332
G1 X72.31 Y117.446 E8.44334
G1 X72.343 Y116.68 E8.46884
G1 X72.379 Y116.234 E8.48372
G1 X72.469 Y115.392 E8.51189
G1 X72.609 Y114.5 E8.54192
G1 X72.804 Y113.705 E8.56914
G1 X73.022 Y112.963 E8.59487
G1 X73.39 Y111.812 E8.63506
G1 X73.892 Y110.316 E8.68754
G1 X74.635 Y107.87 E8.77257
G1 X75.302 Y105.43 E8.8567
G1 X75.899 Y102.971 E8.94086
G1 X76.44 Y100.445 E9.02678
G1 X76.632 Y99.49 E9.05918
G1 X76.826 Y98.694 E9.08643
G1 X76.949 Y98.265 E9.10127
G1 X77.191 Y97.493 E9.12818
G1 X77.503 Y96.646 E9.1582
G1 X77.834 Y95.936 E9.18426
G1 X78.04 Y95.535 E9.19925
G1 X78.444 Y94.795 E9.22729
G1 X78.914 Y94.024 E9.25733
G1 X79.391 Y93.373 E9.28417
G1 X79.686 Y93.002 E9.29993
G1 X80.227 Y92.357 E9.32793
G1 X80.841 Y91.695 E9.35797
G1 X81.225 Y91.335 E9.37547
G0 F6000 X80.959 Y91.036
G1 F1200 X81.566 Y90.497 E9.40247
G1 X82.537 Y89.653 E9.44526
G1 X84.401 Y87.94 E9.52946
G1 X86.232 Y86.159 E9.61442
G1 X87.985 Y84.354 E9.69811
G1 X89.698 Y82.489 E9.78233
G1 X90.675 Y81.367 E9.83182
G1 X91.063 Y80.933 E9.85118
G1 X91.694 Y80.286 E9.88124
G1 X92.078 Y79.941 E9.89841
G1 X92.708 Y79.411 E9.92579
G1 X93.125 Y79.078 E9.94354
G1 X93.883 Y78.527 E9.97471
G1 X94.601 Y78.092 E10.00263
G1 X95.288 Y77.717 E10.02866
G1 X95.742 Y77.483 E10.04565
G1 X96.608 Y77.086 E10.07733
G1 X97.351 Y76.815 E10.10364
G1 X97.766 Y76.682 E10.11813
G1 X98.625 Y76.431 E10.1479
G1 X99.461 Y76.229 E10.1765
G1 X100.323 Y76.058 E10.20573
G1 X102.837 Y75.522 E10.29123
G1 X105.265 Y74.934 E10.37432
G1 X107.737 Y74.258 E10.45956
G1 X110.169 Y73.522 E10.54407
G1 X112.235 Y72.832 E10.61651
G1 X113.069 Y72.571 E10.64558
G1 X113.608 Y72.416 E10.66423
G1 X114.486 Y72.205 E10.69427
G1 X115.314 Y72.076 E10.72214
G1 X116.137 Y71.986 E10.74967
G1 X116.634 Y71.945 E10.76626
G1 X117.569 Y71.91 E10.79738
G1 X118.337 Y71.943 E10.82295
G1 X119.12 Y72.011 E10.84909
G1 X119.666 Y72.073 E10.86737
G1 X120.591 Y72.219 E10.89851
G1 X121.397 Y72.417 E10.92612
G1 X122.148 Y72.637 E10.95215
G1 X123.315 Y73.011 E10.9929
G1 X124.8 Y73.509 E11.045
G1 X127.246 Y74.252 E11.13002
G1 X129.664 Y74.913 E11.2134
G1 X132.123 Y75.51 E11.29756
G1 X134.601 Y76.041 E11.38185
G1 X135.605 Y76.243 E11.41591
G1 X136.416 Y76.441 E11.44368
G1 X136.855 Y76.567 E11.45887
G1 X137.627 Y76.809 E11.48578
G1 X138.523 Y77.14 E11.51755
G1 X139.247 Y77.478 E11.54412
G1 X139.656 Y77.689 E11.55943
G1 X140.406 Y78.097 E11.58783
G1 X141.177 Y78.567 E11.61786
G1 X141.878 Y79.079 E11.64673
G1 X142.258 Y79.382 E11.6629
G1 X142.915 Y79.934 E11.69144
G1 X143.597 Y80.567 E11.72239
G1 X143.964 Y80.959 E11.74025
G1 X144.503 Y81.566 E11.76725
G1 X145.347 Y82.537 E11.81004
G1 X147.06 Y84.401 E11.89424
G1 X148.821 Y86.212 E11.97825
G1 X150.644 Y87.984 E12.06281
G1 X152.508 Y89.696 E12.14699
G1 X153.615 Y90.659 E12.19579
G1 X154.067 Y91.063 E12.21595
G1 X154.732 Y91.712 E12.24686
G1 X155.059 Y92.078 E12.26318
G1 X155.589 Y92.708 E12.29056
G1 X155.922 Y93.125 E12.30831
G1 X156.473 Y93.883 E12.33948
G1 X156.911 Y94.606 E12.3676
G1 X157.263 Y95.25 E12.39201
G1 X157.505 Y95.717 E12.4095
G1 X157.898 Y96.567 E12.44065
G1 X158.185 Y97.352 E12.46845
G1 X158.414 Y98.082 E12.49389
G1 X158.569 Y98.625 E12.51268
G1 X158.771 Y99.461 E12.54128
G1 X158.941 Y100.318 E12.57034
G1 X159.478 Y102.837 E12.65601
G1 X160.065 Y105.262 E12.73899
G1 X160.739 Y107.727 E12.82399
G1 X161.479 Y110.169 E12.90886
G1 X162.126 Y112.108 E12.97684
G1 X162.346 Y112.797 E13.0009
G1 X162.58 Y113.595 E13.02856
G1 X162.793 Y114.472 E13.05857
G1 X162.923 Y115.31 E13.08678
G1 X162.981 Y115.815 E13.10369
G1 X163.054 Y116.629 E13.13087
G1 X163.09 Y117.565 E13.16202
G1 X163.056 Y118.35 E13.18816
G1 X162.989 Y119.12 E13.21386
G1 X162.927 Y119.666 E13.23214
G1 X162.781 Y120.591 E13.26329
G1 X162.583 Y121.397 E13.29089
G1 X162.371 Y122.121 E13.31598
G1 X162.037 Y123.169 E13.35257
G1 X161.491 Y124.8 E13.40977
G1 X160.748 Y127.246 E13.4948
G1 X160.084 Y129.675 E13.57855
G1 X159.49 Y132.123 E13.66234
G1 X158.951 Y134.639 E13.74792
G1 X158.757 Y135.605 E13.78069
G1 X158.558 Y136.419 E13.80856
G1 X158.337 Y137.171 E13.83463
G1 X158.174 Y137.676 E13.85228
G1 X157.859 Y138.522 E13.8823
G1 X157.511 Y139.269 E13.90971
G1 X157.172 Y139.917 E13.93404
G1 X156.903 Y140.406 E13.9526
G1 X156.433 Y141.177 E13.98263
G1 X155.918 Y141.882 E14.01167
G1 X155.423 Y142.496 E14.0379
G1 X155.077 Y142.903 E14.05567
G1 X154.463 Y143.565 E14.0857
G1 X154.056 Y143.948 E14.10429
G1 X153.344 Y144.581 E14.13597
G1 X152.463 Y145.347 E14.1748
G1 X150.599 Y147.06 E14.259
G1 X148.779 Y148.83 E14.34344
G1 X147.015 Y150.646 E14.42765
G1 X145.302 Y152.511 E14.51187
G1 X144.33 Y153.628 E14.56112
G1 X143.942 Y154.061 E14.58046
G1 X142.974 Y155.012 E14.62559
G1 X142.588 Y155.345 E14.64255
G1 X141.863 Y155.931 E14.67355
G1 X141.132 Y156.462 E14.70361
G1 X140.392 Y156.911 E14.73239
G1 X139.967 Y157.146 E14.74855
G1 X139.255 Y157.517 E14.77525
G1 X138.404 Y157.909 E14.80641
G1 X137.668 Y158.178 E14.83248
G1 X137.25 Y158.313 E14.84709
G1 X136.379 Y158.568 E14.87727
G1 X135.539 Y158.771 E14.90601
G1 X134.677 Y158.942 E14.93524
G1 X132.163 Y159.478 E15.02074
G1 X129.738 Y160.065 E15.10372
G1 X127.263 Y160.742 E15.18907
G1 X124.831 Y161.478 E15.27358
G1 X122.765 Y162.168 E15.34602
G1 X121.931 Y162.429 E15.37509
G1 X121.392 Y162.584 E15.39374
G1 X120.514 Y162.795 E15.42378
G1 X119.686 Y162.924 E15.45165
G1 X118.863 Y163.014 E15.47919
G1 X118.366 Y163.055 E15.49577
G1 X117.431 Y163.09 E15.52689
G1 X116.663 Y163.057 E15.55246
G1 X115.88 Y162.989 E15.5786
G1 X115.334 Y162.927 E15.59688
G1 X114.409 Y162.781 E15.62802
G1 X113.603 Y162.583 E15.65563
G1 X112.852 Y162.363 E15.68166
G1 X111.685 Y161.989 E15.72242
G1 X110.2 Y161.491 E15.77451
G1 X107.754 Y160.748 E15.85953
G1 X105.336 Y160.087 E15.94291
G1 X102.877 Y159.49 E16.02707
G1 X100.394 Y158.958 E16.11153
G1 X99.395 Y158.757 E16.14542
G1 X98.584 Y158.559 E16.17319
G1 X98.145 Y158.433 E16.18838
G1 X97.373 Y158.191 E16.21529
G1 X96.477 Y157.86 E16.24706
G1 X95.753 Y157.522 E16.27363
G1 X95.344 Y157.311 E16.28894
G1 X94.594 Y156.903 E16.31734
G1 X93.823 Y156.433 E16.34737
G1 X93.122 Y155.921 E16.37624
G1 X92.741 Y155.618 E16.39243
G1 X92.07 Y155.053 E16.42161
G1 X91.39 Y154.418 E16.45255
G1 X91.04 Y154.044 E16.46959
G1 X90.502 Y153.439 E16.49652
G1 X89.653 Y152.463 E16.53954
G1 X87.94 Y150.599 E16.62374
G1 X86.17 Y148.779 E16.70818
G1 X84.354 Y147.015 E16.79239
G1 X82.489 Y145.302 E16.87661
G1 X81.468 Y144.415 E16.9216
G1 X80.929 Y143.934 E16.94562
G1 X80.265 Y143.284 E16.97653
G1 X79.941 Y142.921 E16.99271
G1 X79.395 Y142.272 E17.02092
G1 X79.062 Y141.853 E17.03872
G1 X78.532 Y141.122 E17.06875
G1 X78.103 Y140.416 E17.09623
G1 X77.706 Y139.69 E17.12375
G1 X77.471 Y139.232 E17.14087
G1 X77.094 Y138.411 E17.17092
G1 X76.822 Y137.668 E17.19724
G1 X76.687 Y137.25 E17.21185
G1 X76.432 Y136.379 E17.24203
G1 X76.229 Y135.539 E17.27078
G1 X76.058 Y134.677 E17.3
G1 X75.522 Y132.163 E17.3855
G1 X74.932 Y129.726 E17.4689
G1 X74.255 Y127.252 E17.55421
G1 X73.527 Y124.851 E17.63766
G1 X72.832 Y122.765 E17.71079
G1 X72.571 Y121.931 E17.73985
G1 X72.416 Y121.392 E17.7585
G1 X72.205 Y120.514 E17.78854
G1 X72.076 Y119.685 E17.81644
G1 X71.986 Y118.861 E17.84401
G1 X71.945 Y118.364 E17.8606
G1 X71.91 Y117.429 E17.89172
G1 X71.944 Y116.648 E17.91772
G1 X71.981 Y116.191 E17.93297
G1 X72.074 Y115.33 E17.96177
G1 X72.214 Y114.438 E17.9918
G1 X72.42 Y113.592 E18.02076
G1 X72.641 Y112.841 E18.0468
G1 X73.011 Y111.685 E18.08717
G1 X73.509 Y110.2 E18.13927
G1 X74.252 Y107.754 E18.22429
G1 X74.916 Y105.325 E18.30804
G1 X75.51 Y102.877 E18.39183
G1 X76.049 Y100.361 E18.47741
G1 X76.243 Y99.395 E18.51018
G1 X76.441 Y98.584 E18.53795
G1 X76.567 Y98.145 E18.55314
G1 X76.809 Y97.373 E18.58005
G1 X77.14 Y96.477 E18.61182
G1 X77.478 Y95.753 E18.63839
G1 X77.689 Y95.343 E18.65373
G1 X78.102 Y94.587 E18.68238
G1 X78.572 Y93.816 E18.71241
G1 X79.078 Y93.124 E18.74092
G1 X79.38 Y92.745 E18.75704
G1 X79.934 Y92.085 E18.7857
G1 X80.567 Y91.403 E18.81665
G1 X80.959 Y91.036 E18.83451
G0 F6000 X80.693 Y90.737
G1 F1200 X82.266 Y89.358 E18.90409
G1 X84.13 Y87.645 E18.98829
G1 X85.953 Y85.872 E19.07287
G1 X87.69 Y84.083 E19.1558
G1 X89.403 Y82.218 E19.24003
G1 X90.377 Y81.1 E19.28935
G1 X90.777 Y80.654 E19.30927
G1 X91.427 Y79.988 E19.34022
G1 X91.82 Y79.635 E19.35779
G1 X92.458 Y79.098 E19.38553
G1 X92.89 Y78.754 E19.4039
G1 X93.648 Y78.203 E19.43507
G1 X94.409 Y77.741 E19.46468
G1 X95.105 Y77.361 E19.49105
G1 X95.575 Y77.119 E19.50863
G1 X96.441 Y76.722 E19.54032
G1 X97.229 Y76.434 E19.56822
G1 X97.654 Y76.298 E19.58307
G1 X98.531 Y76.042 E19.61345
G1 X99.383 Y75.837 E19.6426
G1 X100.245 Y75.666 E19.67183
G1 X102.743 Y75.133 E19.75678
G1 X105.162 Y74.547 E19.83956
G1 X107.631 Y73.872 E19.9247
G1 X110.053 Y73.139 E20.00886
G1 X112.116 Y72.45 E20.0812
G1 X112.958 Y72.187 E20.11054
G1 X113.515 Y72.027 E20.12982
G1 X114.424 Y71.81 E20.1609
G1 X115.271 Y71.678 E20.18941
G1 X116.104 Y71.587 E20.21728
G1 X116.619 Y71.545 E20.23447
G1 X117.586 Y71.51 E20.26665
G1 X118.372 Y71.544 E20.29282
G1 X119.155 Y71.612 E20.31896
