;FLAVOR:Marlin
;TIME:14733
;Filament used: 11.3435m
;Layer height: 0.2
;MINX:46.501
;MINY:16.554
;MINZ:0.2
;MAXX:188.499
;MAXY:218.444
;MAXZ:10
;Generated with Cura_SteamEngine 5.3.1
M140 S50
M105
M190 S50
M104 S200
M105
M109 S200
M82 ;absolute extrusion mode
; Ender 3 Custom Start G-code
G92 E0 ; Reset Extruder
G28 ; Home all axes
G1 Z2.0 F3000 ; Move Z Axis up little to prevent scratching of Heat Bed
G1 X0.1 Y20 Z0.3 F5000.0 ; Move to start position
G1 X0.1 Y200.0 Z0.3 F1500.0 E15 ; Draw the first line
G1 X0.4 Y200.0 Z0.3 F5000.0 ; Move to side a little
G1 X0.4 Y20 Z0.3 F1500.0 E30 ; Draw the second line
G92 E0 ; Reset Extruder
G1 Z2.0 F3000 ; Move Z Axis up little to prevent scratching of Heat Bed
G1 X5 Y20 Z0.3 F5000.0 ; Move over to prevent blob squish
G92 E0
G92 E0
G1 F2700 E-5
;LAYER_COUNT:50
;LAYER:0
M107
G0 F6000 X58.492 Y34.979 Z0.2
;TYPE:SKIRT
G1 F2700 E0
G1 F1200 X59.08 Y34.104 E0.03506
G1 X59.387 Y33.695 E0.05207
G1 X60.071 Y32.877 E0.08754
G1 X60.396 Y32.527 E0.10342
G1 X61.053 Y31.881 E0.13407
G1 X61.467 Y31.509 E0.15258
G1 X62.43 Y30.743 E0.19351
G1 X62.888 Y30.422 E0.21211
G1 X63.745 Y29.883 E0.24578
G1 X64.165 Y29.647 E0.26181
G1 X65.018 Y29.219 E0.29355
G1 X67.833 Y27.967 E0.39602
G1 X70.127 Y26.863 E0.48069
G1 X72.398 Y25.692 E0.56568
G1 X74.608 Y24.471 E0.64965
G1 X76.803 Y23.174 E0.73445
G1 X78.943 Y21.828 E0.81854
G1 X81.715 Y19.959 E0.92973
G1 X82.404 Y19.521 E0.95689
G1 X83.323 Y19.01 E0.99186
G1 X83.727 Y18.812 E1.00683
G1 X84.579 Y18.441 E1.03773
G1 X85.124 Y18.233 E1.05714
G1 X86.404 Y17.839 E1.10168
G1 X86.985 Y17.701 E1.12154
G1 X87.907 Y17.526 E1.15275
G1 X88.301 Y17.47 E1.16599
G1 X89.231 Y17.382 E1.19706
G1 X89.796 Y17.354 E1.21588
G1 X91.012 Y17.366 E1.25632
G1 X91.556 Y17.404 E1.27446
G1 X92.614 Y17.534 E1.30991
G1 X93.125 Y17.624 E1.32717
G1 X94.163 Y17.863 E1.3626
G1 X94.673 Y18.009 E1.38024
G1 X95.692 Y18.36 E1.41609
G1 X96.169 Y18.553 E1.4332
G1 X97.095 Y18.983 E1.46716
G1 X97.931 Y19.431 E1.49871
G1 X116.846 Y30.346 E2.22505
G1 X119.11 Y31.61 E2.3113
G1 X121.356 Y32.783 E2.39557
G1 X123.638 Y33.893 E2.47998
G1 X125.947 Y34.937 E2.56426
G1 X128.294 Y35.918 E2.64886
G1 X130.698 Y36.845 E2.73456
G1 X133.064 Y37.681 E2.81802
G1 X135.467 Y38.454 E2.90198
G1 X137.923 Y39.169 E2.98706
G1 X140.397 Y39.813 E3.07209
G1 X142.828 Y40.375 E3.15507
G1 X145.355 Y40.881 E3.24079
G1 X147.858 Y41.312 E3.32527
G1 X150.375 Y41.67 E3.40982
G1 X152.861 Y41.953 E3.49304
G1 X155.429 Y42.173 E3.57877
G1 X158.676 Y42.359 E3.68694
G1 X159.858 Y42.496 E3.72652
G1 X160.393 Y42.59 E3.74458
G1 X161.435 Y42.83 E3.78015
G1 X161.924 Y42.97 E3.79707
G1 X162.941 Y43.32 E3.83284
G1 X163.443 Y43.523 E3.85085
G1 X164.417 Y43.978 E3.8866
G1 X164.871 Y44.22 E3.90372
G1 X165.758 Y44.752 E3.93812
G1 X166.114 Y44.991 E3.95238
G1 X166.828 Y45.517 E3.98187
G1 X167.291 Y45.89 E4.00165
G1 X168.218 Y46.736 E4.04339
G1 X168.529 Y47.057 E4.05826
G1 X169.031 Y47.615 E4.08322
G1 X169.537 Y48.221 E4.10948
G1 X171.278 Y50.27 E4.19891
G1 X172.968 Y52.147 E4.28291
G1 X174.729 Y53.996 E4.36784
G1 X176.525 Y55.777 E4.45197
G1 X178.391 Y57.527 E4.53705
G1 X180.29 Y59.208 E4.62141
G1 X181.453 Y60.192 E4.67207
G1 X182.423 Y61 E4.71406
G1 X183.218 Y61.736 E4.7501
G1 X183.573 Y62.102 E4.76706
G1 X184.278 Y62.91 E4.80272
G1 X184.583 Y63.299 E4.81916
G1 X185.132 Y64.071 E4.85067
G1 X185.434 Y64.54 E4.86922
G1 X186.016 Y65.57 E4.90857
G1 X186.223 Y65.992 E4.92421
G1 X186.594 Y66.846 E4.95517
G1 X186.804 Y67.396 E4.97476
G1 X187.089 Y68.253 E5.00479
G1 X187.202 Y68.692 E5.01987
G1 X187.336 Y69.26 E5.03928
G1 X187.504 Y70.143 E5.06918
G1 X187.567 Y70.579 E5.08383
G1 X187.665 Y71.651 E5.11963
G1 X187.695 Y72.642 E5.15261
G1 X187.699 Y161.945 E8.12284
G1 X187.686 Y162.818 E8.15188
G1 X187.664 Y163.35 E8.16959
G1 X187.64 Y163.707 E8.18149
G1 X187.539 Y164.609 E8.21168
G1 X187.448 Y165.187 E8.23114
G1 X187.179 Y166.406 E8.27266
G1 X187.036 Y166.906 E8.28995
G1 X186.721 Y167.835 E8.32258
G1 X186.531 Y168.318 E8.33984
G1 X186.044 Y169.374 E8.37852
G1 X185.786 Y169.859 E8.39679
G1 X185.256 Y170.745 E8.43113
G1 X184.972 Y171.169 E8.4481
G1 X184.334 Y172.021 E8.48351
G1 X184 Y172.422 E8.50086
G1 X183.282 Y173.199 E8.53605
G1 X182.969 Y173.504 E8.55059
G1 X182.387 Y174.029 E8.57666
G1 X181.727 Y174.58 E8.60525
G1 X179.762 Y176.25 E8.69102
G1 X177.867 Y177.955 E8.77581
G1 X176.017 Y179.715 E8.86074
G1 X174.237 Y181.511 E8.94484
G1 X172.497 Y183.364 E9.02938
G1 X170.779 Y185.304 E9.11557
G1 X169.822 Y186.435 E9.16485
G1 X169.006 Y187.416 E9.20729
G1 X168.26 Y188.22 E9.24377
G1 X167.912 Y188.557 E9.25988
G1 X167.198 Y189.187 E9.29155
G1 X166.814 Y189.495 E9.30792
G1 X165.96 Y190.11 E9.34293
G1 X165.456 Y190.435 E9.36287
G1 X164.411 Y191.025 E9.40279
G1 X163.941 Y191.255 E9.42019
G1 X162.95 Y191.677 E9.45601
G1 X162.456 Y191.857 E9.4735
G1 X161.452 Y192.165 E9.50843
G1 X160.943 Y192.293 E9.52589
G1 X159.879 Y192.501 E9.56195
G1 X159.425 Y192.565 E9.5772
G1 X158.554 Y192.65 E9.6063
G1 X155.832 Y192.798 E9.69697
G1 X153.287 Y193.003 E9.78189
G1 X150.797 Y193.276 E9.86521
G1 X148.249 Y193.627 E9.95075
G1 X145.72 Y194.049 E10.03603
G1 X143.26 Y194.531 E10.11941
G1 X140.782 Y195.091 E10.2039
G1 X138.359 Y195.709 E10.28707
G1 X135.872 Y196.421 E10.37311
G1 X133.427 Y197.197 E10.45843
G1 X131.087 Y198.011 E10.54084
G1 X128.684 Y198.923 E10.62632
G1 X126.34 Y199.892 E10.71068
G1 X124.034 Y200.922 E10.79468
G1 X121.732 Y202.029 E10.87964
G1 X119.461 Y203.202 E10.96466
G1 X116.853 Y204.65 E11.06387
G1 X98.334 Y215.341 E11.77509
G1 X97.613 Y215.744 E11.80256
G1 X97.181 Y215.972 E11.81881
G1 X96.745 Y216.189 E11.835
G1 X95.698 Y216.638 E11.87289
G1 X95.205 Y216.818 E11.89035
G1 X94.208 Y217.126 E11.92506
G1 X93.698 Y217.255 E11.94255
G1 X92.624 Y217.466 E11.97896
G1 X92.164 Y217.531 E11.99441
G1 X91.235 Y217.619 E12.02545
G1 X90.724 Y217.644 E12.04246
G1 X89.666 Y217.641 E12.07765
G1 X89.139 Y217.612 E12.09521
G1 X88.093 Y217.5 E12.1302
G1 X87.585 Y217.419 E12.14731
G1 X86.499 Y217.184 E12.18426
G1 X85.918 Y217.025 E12.2043
G1 X84.771 Y216.637 E12.24457
G1 X84.291 Y216.442 E12.2618
G1 X83.371 Y216.014 E12.29555
G1 X82.916 Y215.774 E12.31266
G1 X82 Y215.227 E12.34815
G1 X80.748 Y214.388 E12.39827
G1 X79.98 Y213.859 E12.42929
G1 X77.822 Y212.461 E12.51481
G1 X75.661 Y211.146 E12.59895
G1 X73.47 Y209.897 E12.68283
G1 X71.202 Y208.687 E12.76833
G1 X68.958 Y207.571 E12.85168
G1 X65.762 Y206.109 E12.96858
G1 X64.936 Y205.739 E12.99868
G1 X63.973 Y205.245 E13.03468
G1 X63.47 Y204.952 E13.05404
G1 X62.488 Y204.301 E13.09323
G1 X62.121 Y204.026 E13.10848
G1 X61.394 Y203.427 E13.13981
G1 X61.016 Y203.085 E13.15676
G1 X60.277 Y202.344 E13.19157
G1 X59.873 Y201.895 E13.21166
G1 X59.113 Y200.942 E13.2522
G1 X58.809 Y200.51 E13.26977
G1 X58.248 Y199.617 E13.30485
G1 X58.035 Y199.236 E13.31937
G1 X57.615 Y198.397 E13.35057
G1 X57.374 Y197.854 E13.37033
G1 X56.951 Y196.725 E13.41043
G1 X56.665 Y195.776 E13.4434
G1 X52.997 Y182.106 E13.91415
G1 X52.733 Y181.069 E13.94974
G1 X52.045 Y178.516 E14.03768
G1 X51.314 Y176.079 E14.1223
G1 X50.511 Y173.655 E14.20723
G1 X49.665 Y171.322 E14.28977
G1 X48.421 Y168.204 E14.40143
G1 X48.14 Y167.447 E14.42828
G1 X47.797 Y166.301 E14.46807
G1 X47.666 Y165.748 E14.48697
G1 X47.494 Y164.843 E14.51761
G1 X47.439 Y164.459 E14.53051
G1 X47.347 Y163.494 E14.56276
G1 X47.316 Y162.838 E14.5846
G1 X47.305 Y162.358 E14.60057
G1 X47.301 Y73.062 E17.57057
G1 X47.313 Y72.22 E17.59857
G1 X47.334 Y71.697 E17.61598
G1 X47.36 Y71.301 E17.62918
G1 X47.464 Y70.372 E17.66027
G1 X47.545 Y69.861 E17.67748
G1 X47.767 Y68.815 E17.71305
G1 X47.914 Y68.267 E17.73192
G1 X48.288 Y67.142 E17.77135
G1 X48.918 Y65.561 E17.82795
G1 X49.058 Y65.228 E17.83997
G1 X49.968 Y62.856 E17.92447
G1 X50.802 Y60.486 E18.00803
G1 X51.583 Y58.047 E18.09321
G1 X52.292 Y55.602 E18.17788
G1 X52.75 Y53.867 E18.23757
G1 X52.964 Y53.022 E18.26656
G1 X56.562 Y39.596 E18.72887
G1 X56.795 Y38.777 E18.75719
G1 X56.951 Y38.278 E18.77458
G1 X57.074 Y37.917 E18.78726
G1 X57.421 Y37.036 E18.81875
G1 X57.654 Y36.516 E18.83771
G1 X58.216 Y35.439 E18.87811
G1 X58.492 Y34.979 E18.89595
G0 F6000 X58.16 Y34.756
G1 F1200 X58.76 Y33.864 E18.93171
G1 X59.08 Y33.438 E18.94943
G1 X59.764 Y32.62 E18.98489
G1 X60.116 Y32.242 E19.00207
G1 X60.786 Y31.583 E19.03333
G1 X61.218 Y31.196 E19.05262
G1 X62.2 Y30.415 E19.09435
G1 X62.675 Y30.083 E19.11363
G1 X63.549 Y29.534 E19.14796
G1 X63.986 Y29.289 E19.16462
G1 X64.855 Y28.854 E19.19694
G1 X67.67 Y27.602 E19.29941
G1 X69.944 Y26.507 E19.38336
G1 X72.215 Y25.336 E19.46834
G1 X74.415 Y24.121 E19.55193
G1 X76.59 Y22.835 E19.63597
G1 X78.721 Y21.495 E19.7197
G1 X81.5 Y19.621 E19.83118
G1 X82.189 Y19.183 E19.85833
G1 X83.147 Y18.651 E19.89478
G1 X83.567 Y18.445 E19.91034
G1 X84.436 Y18.067 E19.94186
G1 X84.981 Y17.859 E19.96126
G1 X86.312 Y17.45 E20.00757
G1 X86.91 Y17.308 E20.02801
G1 X87.851 Y17.13 E20.05987
G1 X88.263 Y17.072 E20.07371
G1 X89.211 Y16.982 E20.10538
G1 X89.776 Y16.954 E20.12419
G1 X91.04 Y16.967 E20.16624
G1 X91.605 Y17.007 E20.18507
G1 X92.683 Y17.14 E20.2212
G1 X93.215 Y17.234 E20.23917
G1 X94.273 Y17.478 E20.27528
G1 X94.783 Y17.624 E20.29293
G1 X95.842 Y17.989 E20.33018
G1 X96.337 Y18.19 E20.34795
G1 X97.284 Y18.63 E20.38268
G1 X98.131 Y19.085 E20.41466
G1 X117.041 Y29.997 E21.14081
G1 X119.295 Y31.255 E21.22667
G1 X121.531 Y32.423 E21.31057
G1 X123.813 Y33.533 E21.39498
G1 X126.101 Y34.568 E21.4785
G1 X128.438 Y35.545 E21.56275
G1 X130.838 Y36.471 E21.64831
G1 X133.186 Y37.3 E21.73113
G1 X135.586 Y38.072 E21.81498
G1 X138.031 Y38.784 E21.89968
G1 X140.487 Y39.423 E21.98408
G1 X142.918 Y39.985 E22.06707
G1 X145.43 Y40.488 E22.15228
G1 X147.914 Y40.916 E22.23612
G1 X150.431 Y41.274 E22.32067
G1 X152.895 Y41.554 E22.40315
G1 X155.463 Y41.775 E22.48888
G1 X158.722 Y41.962 E22.59746
G1 X159.927 Y42.102 E22.6378
G1 X160.483 Y42.2 E22.65658
G1 X161.545 Y42.445 E22.69283
G1 X162.034 Y42.585 E22.70975
G1 X163.091 Y42.949 E22.74693
G1 X163.593 Y43.152 E22.76494
G1 X164.605 Y43.625 E22.8021
G1 X165.077 Y43.877 E22.81989
G1 X165.981 Y44.42 E22.85497
G1 X166.351 Y44.669 E22.8698
G1 X167.079 Y45.206 E22.89989
G1 X167.561 Y45.595 E22.92049
G1 X168.488 Y46.441 E22.96223
G1 X168.826 Y46.789 E22.97837
G1 X169.338 Y47.359 E23.00385
G1 X171.575 Y50.002 E23.11902
G1 X173.258 Y51.871 E23.20267
G1 X175.011 Y53.712 E23.28722
G1 X176.799 Y55.485 E23.37097
G1 X178.656 Y57.227 E23.45565
G1 X180.555 Y58.909 E23.54003
G1 X181.709 Y59.885 E23.5903
G1 X182.695 Y60.706 E23.63297
G1 X183.49 Y61.442 E23.66901
G1 X183.874 Y61.839 E23.68738
G1 X184.593 Y62.663 E23.72375
G1 X184.909 Y63.067 E23.74081
G1 X185.468 Y63.854 E23.77292
G1 X185.782 Y64.343 E23.79224
G1 X186.375 Y65.394 E23.83238
G1 X186.59 Y65.833 E23.84864
G1 X186.968 Y66.703 E23.88019
G1 X187.184 Y67.27 E23.90037
G1 X187.469 Y68.127 E23.93041
G1 X187.591 Y68.6 E23.94665
G1 X187.729 Y69.185 E23.96665
G1 X187.9 Y70.086 E23.99715
G1 X187.965 Y70.543 E24.0125
G1 X188.065 Y71.639 E24.04911
G1 X188.095 Y72.642 E24.08248
G1 X188.099 Y161.951 E27.05291
G1 X188.086 Y162.835 E27.08231
G1 X188.063 Y163.377 E27.10036
G1 X188.038 Y163.752 E27.11286
G1 X187.937 Y164.654 E27.14305
G1 X187.839 Y165.273 E27.16389
G1 X187.564 Y166.516 E27.20623
G1 X187.415 Y167.034 E27.22416
G1 X187.093 Y167.981 E27.25743
G1 X186.894 Y168.486 E27.27548
G1 X186.397 Y169.562 E27.3149
G1 X186.129 Y170.064 E27.33383
G1 X185.588 Y170.968 E27.36887
G1 X185.292 Y171.409 E27.38654
G1 X184.641 Y172.277 E27.42262
G1 X184.294 Y172.693 E27.44064
G1 X183.561 Y173.485 E27.47653
G1 X183.237 Y173.801 E27.49159
G1 X182.643 Y174.336 E27.51817
G1 X181.986 Y174.885 E27.54665
G1 X180.021 Y176.555 E27.63242
G1 X178.143 Y178.245 E27.71645
G1 X176.293 Y180.005 E27.80138
G1 X174.521 Y181.793 E27.88511
G1 X172.788 Y183.638 E27.9693
G1 X171.078 Y185.569 E28.05509
G1 X170.13 Y186.691 E28.10394
G1 X169.314 Y187.672 E28.14638
G1 X168.538 Y188.507 E28.18429
G1 X168.177 Y188.857 E28.20102
G1 X167.448 Y189.499 E28.23333
G1 X167.048 Y189.82 E28.25039
G1 X166.177 Y190.446 E28.28606
G1 X165.653 Y190.783 E28.30678
G1 X164.587 Y191.384 E28.34748
G1 X164.098 Y191.623 E28.36559
G1 X163.087 Y192.053 E28.40213
G1 X162.593 Y192.233 E28.41962
G1 X161.55 Y192.553 E28.4559
G1 X161.02 Y192.686 E28.47408
G1 X159.956 Y192.894 E28.51013
G1 X159.464 Y192.963 E28.52666
G1 X158.576 Y193.049 E28.55633
G1 X155.864 Y193.197 E28.64667
G1 X153.331 Y193.401 E28.73119
G1 X150.841 Y193.674 E28.8145
G1 X148.315 Y194.021 E28.89931
G1 X145.791 Y194.443 E28.98442
G1 X143.337 Y194.924 E29.06759
G1 X140.881 Y195.479 E29.15134
G1 X138.463 Y196.096 E29.23434
G1 X135.982 Y196.806 E29.32017
G1 X133.558 Y197.575 E29.40475
G1 X131.218 Y198.389 E29.48716
G1 X128.837 Y199.293 E29.57187
G1 X126.493 Y200.262 E29.65623
G1 X124.197 Y201.287 E29.73986
G1 X121.916 Y202.384 E29.82404
G1 X119.655 Y203.552 E29.90868
G1 X117.047 Y205 E30.0079
G1 X98.529 Y215.69 E30.71907
G1 X97.8 Y216.098 E30.74685
G1 X97.359 Y216.33 E30.76343
G1 X96.903 Y216.557 E30.78037
G1 X95.835 Y217.014 E30.81901
G1 X95.323 Y217.2 E30.83712
G1 X94.306 Y217.514 E30.87253
G1 X93.796 Y217.643 E30.89002
G1 X92.68 Y217.862 E30.92785
G1 X92.202 Y217.929 E30.9439
G1 X91.255 Y218.019 E30.97554
G1 X90.723 Y218.044 E30.99326
G1 X89.644 Y218.04 E31.02914
G1 X89.096 Y218.01 E31.0474
G1 X88.03 Y217.895 E31.08306
G1 X87.5 Y217.81 E31.10091
G1 X86.393 Y217.57 E31.13859
G1 X85.79 Y217.404 E31.15939
G1 X84.62 Y217.008 E31.20047
G1 X84.122 Y216.805 E31.21836
G1 X83.184 Y216.368 E31.25278
G1 X82.729 Y216.128 E31.26988
G1 X81.777 Y215.559 E31.30677
G1 X80.521 Y214.717 E31.35707
G1 X79.763 Y214.195 E31.38768
G1 X77.614 Y212.803 E31.47284
G1 X75.463 Y211.494 E31.55659
G1 X73.272 Y210.245 E31.64047
G1 X71.014 Y209.04 E31.7256
G1 X68.792 Y207.935 E31.80813
G1 X65.596 Y206.473 E31.92503
G1 X64.753 Y206.095 E31.95575
G1 X63.772 Y205.591 E31.99244
G1 X63.269 Y205.298 E32.0118
G1 X62.248 Y204.621 E32.05254
G1 X61.867 Y204.335 E32.06839
G1 X61.126 Y203.724 E32.10033
G1 X60.748 Y203.382 E32.11729
G1 X59.98 Y202.612 E32.15346
G1 X59.56 Y202.144 E32.17437
G1 X58.786 Y201.172 E32.2157
G1 X58.47 Y200.723 E32.23396
G1 X57.909 Y199.83 E32.26904
G1 X57.677 Y199.415 E32.28485
G1 X57.249 Y198.559 E32.31668
G1 X56.999 Y197.994 E32.33723
G1 X56.576 Y196.865 E32.37733
G1 X56.279 Y195.88 E32.41155
G1 X52.609 Y182.205 E32.88248
G1 X52.346 Y181.168 E32.91806
G1 X51.659 Y178.62 E33.00583
G1 X50.934 Y176.205 E33.0897
G1 X50.131 Y173.781 E33.17463
G1 X49.293 Y171.47 E33.25639
G1 X48.046 Y168.343 E33.36836
G1 X47.757 Y167.562 E33.39606
G1 X47.408 Y166.393 E33.43663
G1 X47.273 Y165.823 E33.45612
G1 X47.098 Y164.9 E33.48736
G1 X47.041 Y164.497 E33.5009
G1 X46.947 Y163.513 E33.53378
G1 X46.916 Y162.847 E33.55595
G1 X46.905 Y162.358 E33.57222
G1 X46.901 Y73.056 E36.54242
G1 X46.913 Y72.204 E36.57076
G1 X46.935 Y71.671 E36.5885
G1 X46.962 Y71.256 E36.60233
G1 X47.069 Y70.309 E36.63403
G1 X47.154 Y69.778 E36.65192
G1 X47.381 Y68.711 E36.6882
G1 X47.534 Y68.141 E36.70783
G1 X47.916 Y66.994 E36.74804
G1 X48.549 Y65.406 E36.8049
G1 X48.69 Y65.073 E36.81692
G1 X49.595 Y62.713 E36.90099
G1 X50.425 Y60.353 E36.9842
G1 X51.202 Y57.925 E37.06899
G1 X51.907 Y55.493 E37.15321
G1 X52.363 Y53.765 E37.21265
G1 X52.578 Y52.918 E37.24171
G1 X56.177 Y39.487 E37.70419
G1 X56.413 Y38.658 E37.73286
G1 X56.572 Y38.149 E37.75059
G1 X56.702 Y37.77 E37.76392
G1 X57.056 Y36.872 E37.79602
G1 X57.299 Y36.331 E37.81575
G1 X57.873 Y35.233 E37.85696
G1 X58.16 Y34.756 E37.87547
G0 F6000 X57.53 Y35.027
G1 F1200 X57.828 Y34.533 E37.89466
G1 X58.44 Y33.624 E37.93111
G1 X58.773 Y33.181 E37.94954
G1 X59.471 Y32.347 E37.98571
G1 X59.823 Y31.969 E38.00289
G1 X60.519 Y31.285 E38.03535
G1 X60.969 Y30.883 E38.05542
G1 X61.971 Y30.087 E38.09798
G1 X62.462 Y29.744 E38.1179
G1 X63.353 Y29.185 E38.15289
G1 X63.807 Y28.931 E38.17019
G1 X64.692 Y28.489 E38.20309
G1 X67.499 Y27.241 E38.30527
G1 X69.761 Y26.151 E38.38878
G1 X72.032 Y24.98 E38.47376
G1 X74.211 Y23.777 E38.55655
G1 X76.377 Y22.496 E38.64025
G1 X78.499 Y21.162 E38.72361
G1 X81.285 Y19.283 E38.83538
G1 X81.974 Y18.845 E38.86253
G1 X82.971 Y18.292 E38.90045
G1 X83.407 Y18.078 E38.91661
